Rigo-Soto/team4_lerobot101/Sample-Results/chunk-000/states_named.csv
shoulder_pan.pos,shoulder_lift.pos,elbow_flex.pos,wrist_flex.pos,wrist_roll.pos,gripper.pos,timestamp,frame_index,episode_index
-60.43956,-61.67033,96.21978,-12.483517,-4.879121,6.48415,0.0,0,0
-60.43956,-61.67033,96.21978,-12.483517,-4.879121,6.48415,0.033333335,1,0
-60.43956,-61.67033,96.21978,-12.483517,-4.879121,6.48415,0.06666667,2,0
-60.263737,-61.23077,96.21978,-13.010989,-5.4065933,6.2680116,0.1,3,0
-58.417583,-59.20879,96.21978,-14.769231,-7.428571,5.6916428,0.13333334,4,0
-55.78022,-55.42857,96.21978,-18.54945,-9.802197,5.3314123,0.16666667,5,0
-53.23077,-51.296703,96.13187,-23.384615,-11.912087,5.259366,0.2,6,0
-51.20879,-48.21978,96.13187,-28.571428,-13.142858,5.115274,0.23333333,7,0
-50.153847,-46.197803,96.13187,-32.967033,-13.67033,5.0432277,0.26666668,8,0
-49.362637,-44.703297,96.13187,-36.395603,-14.10989,4.8991356,0.3,9,0
-48.747253,-43.64835,96.13187,-38.593407,-14.285714,4.8991356,0.33333334,10,0
-48.307693,-42.68132,96.04395,-39.736263,-14.6373625,4.8991356,0.36666667,11,0
-47.956043,-41.714287,96.04395,-40.967033,-14.6373625,4.8991356,0.4,12,0
-47.604397,-41.01099,96.04395,-41.846153,-14.725275,4.8991356,0.43333334,13,0
-47.42857,-40.043957,96.04395,-42.637363,-14.6373625,4.8991356,0.46666667,14,0
-47.34066,-39.164837,96.04395,-43.78022,-14.6373625,4.8991356,0.5,15,0
-47.076923,-38.197803,96.04395,-44.57143,-14.6373625,4.8991356,0.53333336,16,0
-46.9011,-37.494507,96.04395,-45.01099,-14.6373625,4.8991356,0.56666666,17,0
-46.813187,-36.263737,96.04395,-46.241756,-14.549451,4.8991356,0.6,18,0
-46.725273,-34.417583,96.04395,-48.087914,-14.373627,4.8991356,0.6333333,19,0
-46.54945,-32.483517,96.04395,-50.021976,-14.10989,4.8991356,0.6666667,20,0
-46.285713,-30.10989,96.04395,-52.043957,-13.846154,4.8991356,0.7,21,0
-45.758244,-27.736263,96.04395,-53.53846,-13.5824175,4.8991356,0.73333335,22,0
-45.23077,-25.362637,96.04395,-55.296703,-12.967033,4.8991356,0.76666665,23,0
-44.79121,-22.637363,96.04395,-57.23077,-12.791209,4.8991356,0.8,24,0
-44.175823,-19.912088,96.04395,-58.637363,-12.439561,4.8270893,0.8333333,25,0
-43.64835,-17.098902,96.04395,-60.21978,-11.824176,4.5389047,0.8666667,26,0
-43.20879,-14.461538,96.04395,-61.53846,-11.120879,4.3948126,0.9,27,0
-42.857143,-12.087913,96.04395,-62.505493,-10.4175825,4.2507205,0.93333334,28,0
-42.505493,-9.714286,95.95605,-63.12088,-9.802197,4.2507205,0.96666664,29,0
-42.065933,-7.6043954,95.60439,-63.64835,-9.010989,4.2507205,1.0,30,0
-41.802197,-5.8461537,95.25275,-64.08791,-8.307693,4.2507205,1.0333333,31,0
-41.362637,-4.0,94.72527,-64.52747,-7.428571,4.2507205,1.0666667,32,0
-40.923077,-2.3296704,94.10989,-64.87912,-6.7252746,4.2507205,1.1,33,0
-40.57143,-0.6593407,93.23077,-65.05495,-5.7582417,4.2507205,1.1333333,34,0
-40.307693,0.48351648,92.52747,-65.05495,-4.6153846,4.3948126,1.1666666,35,0
-40.043957,1.8021978,91.56044,-65.05495,-3.2967033,4.610951,1.2,36,0
-39.78022,3.032967,90.68132,-65.40659,-2.2417583,4.8270893,1.2333333,37,0
-39.604397,4.175824,89.8022,-65.84615,-1.4505495,5.115274,1.2666667,38,0
-39.34066,5.3186812,88.92308,-66.10989,-0.48351648,5.54755,1.3,39,0
-39.164837,6.197802,88.21978,-66.1978,0.48351648,5.979827,1.3333334,40,0
-39.164837,6.6373625,87.78022,-66.37363,1.2747253,6.772334,1.3666667,41,0
-39.076923,6.989011,87.51649,-66.63736,2.1538463,7.925072,1.4,42,0
-38.9011,7.6043954,86.98901,-66.72527,2.857143,8.861671,1.4333333,43,0
-38.46154,7.9560437,86.54945,-66.81319,3.6483517,10.086455,1.4666667,44,0
-38.285713,8.043956,86.28571,-66.81319,4.3516483,11.239193,1.5,45,0
-37.934067,8.043956,86.1978,-66.81319,5.054945,12.391931,1.5333333,46,0
-37.758244,8.131868,86.10989,-66.81319,5.6703296,13.256484,1.5666667,47,0
-37.758244,8.131868,85.93407,-66.81319,6.10989,13.760807,1.6,48,0
-37.758244,8.395604,85.67033,-66.81319,6.373626,14.1210375,1.6333333,49,0
-37.758244,8.747252,85.14286,-66.81319,6.6373625,14.26513,1.6666666,50,0
-37.758244,9.3626375,84.7033,-66.81319,6.8131866,14.337175,1.7,51,0
-37.758244,9.802197,84.26373,-66.81319,6.9010987,14.481268,1.7333333,52,0
-37.758244,10.4175825,83.73627,-66.81319,6.989011,14.481268,1.7666667,53,0
-37.758244,10.857142,83.20879,-66.81319,6.989011,14.481268,1.8,54,0
-37.758244,11.560439,82.41758,-66.81319,6.989011,14.481268,1.8333334,55,0
-37.758244,12.087913,81.8022,-66.81319,6.989011,14.481268,1.8666667,56,0
-37.758244,12.439561,81.27473,-66.81319,6.989011,14.481268,1.9,57,0
-37.758244,12.791209,80.74725,-66.81319,6.989011,14.481268,1.9333333,58,0
-37.758244,13.230769,80.30769,-66.81319,6.989011,14.481268,1.9666667,59,0
-37.758244,13.67033,79.86813,-66.81319,6.989011,14.481268,2.0,60,0
-37.758244,14.197803,79.42857,-66.81319,6.989011,14.481268,2.0333333,61,0
-37.758244,14.901099,78.81319,-67.16483,6.989011,14.481268,2.0666666,62,0
-37.758244,15.428572,78.28571,-67.42857,6.989011,14.481268,2.1,63,0
-37.758244,15.956044,77.67033,-67.69231,7.252747,14.481268,2.1333334,64,0
-37.758244,16.395605,77.31868,-67.78022,7.5164833,14.481268,2.1666667,65,0
-37.758244,16.923077,76.79121,-67.95605,7.5164833,14.481268,2.2,66,0
-37.758244,17.274725,76.35165,-68.13187,7.5164833,14.481268,2.2333333,67,0
-37.758244,17.89011,75.82417,-68.21978,7.6043954,14.481268,2.2666667,68,0
-37.758244,18.417582,75.38461,-68.48351,7.6923075,14.481268,2.3,69,0
-37.758244,19.032967,74.68132,-68.74725,7.6923075,14.481268,2.3333333,70,0
-37.758244,19.56044,74.15385,-68.92308,7.6923075,14.481268,2.3666666,71,0
-37.758244,19.912088,73.71429,-69.0989,7.6923075,14.481268,2.4,72,0
-37.758244,20.351648,73.27473,-69.36264,7.6923075,14.481268,2.4333334,73,0
-37.758244,21.142857,72.57143,-69.53846,7.6923075,14.481268,2.4666667,74,0
-37.758244,21.758242,71.95605,-69.71429,7.6923075,14.481268,2.5,75,0
-37.758244,22.373627,71.34066,-69.71429,7.6923075,14.481268,2.5333333,76,0
-37.758244,22.901098,70.72527,-69.89011,7.6923075,14.481268,2.5666666,77,0
-37.758244,23.428572,70.1978,-70.06593,7.6923075,14.481268,2.6,78,0
-37.758244,24.043957,69.58242,-70.15385,7.6923075,14.481268,2.6333334,79,0
-37.758244,24.571428,69.05495,-70.41758,7.6923075,14.481268,2.6666667,80,0
-37.758244,25.098902,68.35165,-70.50549,7.6923075,14.481268,2.7,81,0
-37.758244,25.45055,67.82417,-70.68132,7.6923075,14.481268,2.7333333,82,0
-37.758244,25.978022,67.2967,-70.85714,7.6923075,14.481268,2.7666667,83,0
-37.758244,26.505495,66.68132,-70.94505,7.6923075,14.481268,2.8,84,0
-37.758244,26.857143,66.32967,-71.12088,7.6923075,14.481268,2.8333333,85,0
-37.758244,27.208792,65.8022,-71.20879,7.6923075,14.481268,2.8666666,86,0
-37.758244,27.648352,65.36264,-71.2967,7.6923075,14.481268,2.9,87,0
-37.758244,28.087912,65.01099,-71.47253,7.6923075,14.481268,2.9333334,88,0
-37.758244,28.703297,64.48351,-71.47253,7.6923075,14.481268,2.9666667,89,0
-37.758244,29.054945,64.13187,-71.64835,7.6923075,14.481268,3.0,90,0
-37.67033,29.318682,63.78022,-71.64835,7.6923075,14.481268,3.0333333,91,0
-37.67033,29.582418,63.42857,-71.64835,7.6923075,14.481268,3.0666666,92,0
-37.67033,29.846153,62.98901,-71.64835,7.6923075,14.481268,3.1,93,0
-37.67033,30.10989,62.725273,-71.64835,7.9560437,14.481268,3.1333334,94,0
-37.67033,30.285715,62.54945,-71.64835,8.131868,14.481268,3.1666667,95,0
-37.67033,30.461538,62.373627,-71.82417,8.21978,14.481268,3.2,96,0
-37.67033,30.461538,62.285713,-71.82417,8.307693,14.481268,3.2333333,97,0
-37.67033,30.461538,62.285713,-71.82417,8.307693,14.481268,3.2666667,98,0
-37.67033,30.461538,62.285713,-71.82417,8.307693,14.481268,3.3,99,0
-37.67033,30.461538,62.285713,-71.82417,8.307693,14.481268,3.3333333,100,0
-37.67033,30.461538,62.285713,-71.82417,8.307693,14.481268,3.3666666,101,0
-37.67033,30.461538,62.285713,-71.82417,8.307693,14.481268,3.4,102,0
-37.582417,30.461538,62.285713,-71.38461,8.395604,14.481268,3.4333334,103,0
-36.967033,30.285715,62.285713,-70.15385,8.395604,14.481268,3.4666667,104,0
-36.527473,30.197802,62.285713,-69.0989,8.395604,14.481268,3.5,105,0
-36.087914,30.197802,62.285713,-68.39561,8.395604,14.481268,3.5333333,106,0
-36.0,30.197802,62.285713,-68.13187,8.395604,14.481268,3.5666666,107,0
-35.912086,30.197802,62.197803,-67.86813,8.307693,14.481268,3.6,108,0
-35.912086,30.197802,62.10989,-67.69231,8.307693,14.481268,3.6333334,109,0
-35.912086,30.197802,61.934067,-67.34066,8.307693,14.481268,3.6666667,110,0
-35.912086,30.197802,61.846153,-66.9011,8.307693,14.481268,3.7,111,0
-35.912086,30.197802,61.846153,-66.72527,8.307693,14.481268,3.7333333,112,0
-35.912086,30.10989,61.846153,-66.54945,8.307693,14.481268,3.7666667,113,0
-35.824177,30.10989,61.758244,-66.37363,8.307693,14.481268,3.8,114,0
-35.736263,30.021978,61.758244,-66.10989,8.307693,14.481268,3.8333333,115,0
-35.64835,29.494505,61.758244,-65.58242,8.307693,14.481268,3.8666666,116,0
-35.56044,28.967033,61.758244,-65.05495,8.307693,14.481268,3.9,117,0
-35.56044,28.615385,61.758244,-64.43956,8.307693,14.481268,3.9333334,118,0
-35.56044,28.263737,61.758244,-63.824177,8.307693,14.481268,3.9666667,119,0
-35.56044,27.824175,61.758244,-63.12088,8.307693,14.337175,4.0,120,0
-35.56044,27.648352,61.758244,-62.945053,8.307693,13.9049,4.0333333,121,0
-35.56044,27.472527,61.758244,-62.945053,8.307693,12.824207,4.0666666,122,0
-35.56044,27.296703,61.846153,-62.945053,8.307693,10.806916,4.1,123,0
-35.56044,27.032967,62.197803,-62.945053,8.307693,8.213257,4.133333,124,0
-35.56044,26.76923,62.725273,-62.945053,8.307693,5.6916428,4.1666665,125,0
-35.472527,26.681318,63.34066,-62.945053,8.395604,3.962536,4.2,126,0
-35.384617,26.681318,63.42857,-62.945053,8.395604,3.7463977,4.233333,127,0
-35.384617,26.681318,63.692307,-62.945053,8.395604,3.7463977,4.266667,128,0
-35.384617,26.681318,63.78022,-62.945053,8.395604,3.7463977,4.3,129,0
-35.384617,26.593407,63.78022,-62.945053,8.307693,3.7463977,4.3333335,130,0
-35.384617,26.417582,64.04395,-62.945053,8.307693,3.7463977,4.366667,131,0
-35.384617,26.153847,64.13187,-62.945053,8.307693,3.7463977,4.4,132,0
-35.384617,25.978022,64.13187,-62.76923,8.307693,3.7463977,4.4333334,133,0
-35.384617,25.626373,64.21978,-62.153847,8.307693,3.7463977,4.4666667,134,0
-35.384617,25.186813,64.65934,-61.714287,7.7802196,3.7463977,4.5,135,0
-35.384617,24.747253,65.0989,-61.362637,7.252747,3.7463977,4.5333333,136,0
-35.384617,24.395605,65.27473,-61.0989,6.7252746,3.7463977,4.5666666,137,0
-35.384617,24.395605,65.36264,-61.01099,6.373626,3.7463977,4.6,138,0
-35.384617,24.395605,65.62637,-61.01099,5.7582417,3.7463977,4.633333,139,0
-35.384617,24.21978,65.97802,-60.923077,5.142857,3.7463977,4.6666665,140,0
-35.384617,23.868132,66.41758,-60.923077,4.087912,3.7463977,4.7,141,0
-35.384617,23.516483,66.68132,-60.835163,3.3846154,3.7463977,4.733333,142,0
-35.384617,23.076923,66.94505,-60.835163,2.857143,3.7463977,4.766667,143,0
-35.384617,22.901098,67.12088,-60.835163,2.5054946,3.7463977,4.8,144,0
-35.384617,22.813187,67.20879,-60.835163,2.4175825,3.7463977,4.8333335,145,0
-35.384617,22.373627,67.56044,-60.835163,2.7692308,3.7463977,4.866667,146,0
-35.384617,21.67033,68.0,-60.835163,3.2087913,3.7463977,4.9,147,0
-35.384617,20.43956,68.7033,-60.307693,4.3516483,3.7463977,4.9333334,148,0
-35.384617,19.032967,69.31868,-60.043957,5.8461537,3.7463977,4.9666667,149,0
-35.384617,17.626373,69.58242,-60.043957,6.989011,3.7463977,5.0,150,0
-35.384617,16.131868,70.02198,-59.956043,8.131868,3.7463977,5.0333333,151,0
-35.384617,14.813187,70.37363,-59.692307,9.010989,3.7463977,5.0666666,152,0
-35.384617,13.5824175,70.46154,-59.604397,9.802197,3.7463977,5.1,153,0
-35.384617,12.351648,70.54945,-59.42857,10.32967,3.7463977,5.133333,154,0
-35.384617,11.208791,70.81319,-59.42857,11.032967,3.7463977,5.1666665,155,0
-35.384617,9.89011,71.16483,-58.9011,11.560439,3.7463977,5.2,156,0
-35.384617,8.835165,71.34066,-58.637363,12.087913,3.7463977,5.233333,157,0
-35.384617,7.8681316,71.34066,-58.285713,12.5274725,3.7463977,5.266667,158,0
-35.384617,6.5494504,71.78022,-57.494507,12.967033,3.7463977,5.3,159,0
-35.384617,4.879121,72.30769,-56.615383,13.318682,3.7463977,5.3333335,160,0
-35.384617,3.6483517,72.57143,-56.0,13.5824175,3.7463977,5.366667,161,0
-35.384617,2.5934067,72.74725,-55.384617,13.846154,3.7463977,5.4,162,0
-35.736263,1.1868132,73.27473,-54.593407,14.461538,3.7463977,5.4333334,163,0
-36.175823,-0.5714286,73.8022,-53.45055,14.989011,3.7463977,5.4666667,164,0
-36.703297,-2.4175825,74.41758,-52.57143,15.604396,3.7463977,5.5,165,0
-37.142857,-4.5274725,75.20879,-51.252747,16.395605,3.7463977,5.5333333,166,0
-37.582417,-6.7252746,75.73627,-49.582417,17.010988,3.7463977,5.5666666,167,0
-38.197803,-9.010989,76.26373,-47.912086,17.626373,3.7463977,5.6,168,0
-38.9011,-10.857142,76.7033,-46.417583,18.153847,3.7463977,5.633333,169,0
-39.516483,-12.967033,77.58242,-44.923077,18.505495,3.7463977,5.6666665,170,0
-40.131866,-15.076923,78.54945,-43.604397,18.857143,3.7463977,5.7,171,0
-40.747253,-17.098902,79.25275,-42.46154,19.384615,3.7463977,5.733333,172,0
-41.362637,-19.120878,79.78022,-41.142857,19.736263,3.7463977,5.766667,173,0
-41.89011,-20.527473,80.04395,-40.175823,19.736263,3.7463977,5.8,174,0
-42.857143,-22.197802,80.74725,-39.20879,19.736263,3.7463977,5.8333335,175,0
-44.087914,-24.307692,81.62637,-37.89011,19.736263,3.7463977,5.866667,176,0
-45.31868,-26.593407,82.24176,-36.65934,19.736263,3.7463977,5.9,177,0
-46.637363,-29.142857,82.94505,-35.34066,19.736263,3.7463977,5.9333334,178,0
-47.78022,-31.076923,83.56044,-34.197803,19.736263,3.7463977,5.9666667,179,0
-48.835163,-32.65934,84.0,-33.23077,19.56044,3.7463977,6.0,180,0
-49.89011,-34.153847,84.61539,-32.43956,19.120878,3.7463977,6.0333333,181,0
-50.945053,-35.384617,85.05495,-32.263737,18.857143,3.7463977,6.0666666,182,0
-52.175823,-36.79121,85.75824,-31.824175,18.505495,3.7463977,6.1,183,0
-53.31868,-37.934067,86.37363,-31.296703,17.978022,3.7463977,6.133333,184,0
-54.54945,-39.164837,87.34066,-30.76923,17.538462,3.7463977,6.1666665,185,0
-55.692307,-40.043957,87.86813,-30.32967,17.098902,3.7463977,6.2,186,0
-56.923077,-40.747253,88.30769,-30.153847,16.747253,3.7463977,6.233333,187,0
-58.153847,-41.53846,89.01099,-29.89011,16.395605,3.7463977,6.266667,188,0
-59.384617,-42.065933,89.53846,-29.626373,15.868132,3.7463977,6.3,189,0
-60.43956,-42.505493,89.97802,-29.626373,15.428572,3.7463977,6.3333335,190,0
-61.758244,-42.945053,90.59341,-29.538462,15.076923,3.7463977,6.366667,191,0
-62.98901,-43.296703,91.12088,-29.362637,14.6373625,3.7463977,6.4,192,0
-64.04395,-43.64835,91.73627,-29.362637,14.285714,3.7463977,6.4333334,193,0
-65.27473,-43.912086,92.17583,-29.362637,13.934066,3.7463977,6.4666667,194,0
-66.50549,-44.0,92.61539,-29.362637,13.67033,3.7463977,6.5,195,0
-67.47253,-44.263737,93.05495,-29.362637,13.318682,3.7463977,6.5333333,196,0
-68.52747,-44.35165,93.31868,-29.362637,13.054945,3.7463977,6.5666666,197,0
-69.58242,-44.43956,93.58242,-29.362637,12.879121,3.7463977,6.6,198,0
-70.63736,-44.43956,93.84615,-29.362637,12.703297,3.7463977,6.633333,199,0
-71.51649,-44.43956,94.10989,-29.362637,12.5274725,3.7463977,6.6666665,200,0
-72.57143,-44.43956,94.37363,-29.362637,12.351648,3.7463977,6.7,201,0
-73.27473,-44.527473,94.54945,-29.362637,12.175824,3.7463977,6.733333,202,0
-73.36264,-45.054947,95.34066,-29.362637,11.384615,3.7463977,6.766667,203,0
-71.86813,-46.46154,95.51649,-29.362637,9.714286,3.7463977,6.8,204,0
-69.49451,-48.131866,95.86813,-29.098902,8.307693,3.7463977,6.8333335,205,0
-66.76923,-49.274727,95.86813,-28.307692,7.340659,3.7463977,6.866667,206,0
-64.30769,-50.32967,95.86813,-27.428572,6.6373625,3.7463977,6.9,207,0
-63.34066,-51.296703,95.86813,-26.725275,6.285714,3.7463977,6.9333334,208,0
-63.076923,-52.0,95.86813,-25.494505,6.10989,3.7463977,6.9666667,209,0
-62.637363,-52.263737,95.86813,-25.054945,5.934066,3.7463977,7.0,210,0
-62.021976,-52.43956,95.86813,-24.879122,5.934066,3.7463977,7.0333333,211,0
-61.582417,-52.87912,95.95605,-24.0,5.934066,3.7463977,7.0666666,212,0
-61.494507,-53.142857,95.95605,-23.384615,5.6703296,3.7463977,7.1,213,0
-61.494507,-53.406593,95.95605,-22.505495,5.5824175,3.7463977,7.133333,214,0
-61.494507,-53.67033,95.95605,-21.714285,5.4945054,3.7463977,7.1666665,215,0
-61.494507,-54.10989,95.95605,-20.835165,5.4065933,3.7463977,7.2,216,0
-61.582417,-54.373627,95.95605,-20.21978,5.4065933,3.7463977,7.233333,217,0
-61.758244,-54.54945,95.95605,-19.868132,5.4065933,3.7463977,7.266667,218,0
-62.285713,-54.813187,95.95605,-19.428572,5.4065933,3.7463977,7.3,219,0
-62.637363,-54.98901,95.95605,-18.725275,5.4065933,3.7463977,7.3333335,220,0
-62.725273,-55.164837,95.95605,-18.197802,5.4065933,3.7463977,7.366667,221,0
-62.725273,-55.78022,95.95605,-17.406593,5.4065933,3.7463977,7.4,222,0
-62.725273,-56.043957,95.95605,-16.703297,5.4065933,3.7463977,7.4333334,223,0
-62.813187,-56.483517,95.95605,-16.0,5.4065933,3.7463977,7.4666667,224,0
-62.9011,-57.186813,95.95605,-15.032967,5.4065933,3.7463977,7.5,225,0
-62.9011,-57.978024,96.04395,-13.978022,5.3186812,3.7463977,7.5333333,226,0
-62.9011,-58.857143,96.04395,-12.923077,5.142857,3.7463977,7.5666666,227,0
-63.252747,-59.032967,96.04395,-12.395604,5.142857,3.7463977,7.6,228,0
-63.42857,-59.56044,96.04395,-12.131868,5.054945,3.962536,7.633333,229,0
-63.516483,-60.35165,96.13187,-11.164835,5.054945,4.2507205,7.6666665,230,0
-63.516483,-61.054947,96.13187,-10.197803,5.054945,4.610951,7.7,231,0
-63.692307,-61.406593,96.13187,-10.021978,5.054945,5.6195965,7.733333,232,0
-64.13187,-61.23077,96.13187,-10.10989,4.967033,6.4121037,7.766667,233,0
-64.30769,-61.406593,96.13187,-10.197803,5.054945,7.132565,7.8,234,0
-64.30769,-62.10989,96.13187,-9.406593,5.3186812,7.997118,7.8333335,235,0
-63.78022,-62.725273,96.13187,-8.615385,5.5824175,8.789625,7.866667,236,0
-62.725273,-63.34066,96.21978,-7.824176,5.7582417,9.365994,7.9,237,0
-61.846153,-64.13187,96.21978,-6.945055,5.8461537,9.870317,7.9333334,238,0
-60.615383,-64.65934,96.21978,-6.5934067,6.021978,10.446686,7.9666667,239,0
-59.472527,-65.0989,96.30769,-6.2417583,6.285714,10.806916,8.0,240,0
-58.153847,-66.06593,96.39561,-5.0989013,6.5494504,10.951009,8.033334,241,0
-56.307693,-67.03297,96.39561,-3.8681319,6.7252746,11.023055,8.066667,242,0
-54.197803,-67.82417,96.39561,-2.813187,6.9010987,11.023055,8.1,243,0
-51.736263,-68.7033,96.48351,-1.6703297,7.164835,11.023055,8.133333,244,0
-49.53846,-69.40659,96.48351,-0.52747256,7.164835,11.023055,8.166667,245,0
-47.076923,-70.54945,96.57143,1.0549451,7.164835,11.023055,8.2,246,0
-44.35165,-72.04395,96.65934,3.3406594,7.164835,10.518732,8.233334,247,0
-41.53846,-73.0989,96.74725,5.626374,7.076923,9.798271,8.266666,248,0
-38.813187,-74.24176,96.74725,8.0,7.076923,9.293948,8.3,249,0
-36.0,-75.82417,96.83517,10.725275,7.076923,8.501441,8.333333,250,0
-32.923077,-77.05495,96.83517,13.714286,7.076923,7.5648413,8.366667,251,0
-29.934067,-78.10989,96.92308,16.791208,7.076923,6.7002883,8.4,252,0
-27.384615,-78.98901,97.0989,19.252747,6.7252746,5.6916428,8.433333,253,0
-25.186813,-79.69231,97.18681,21.098902,6.373626,4.8270893,8.466666,254,0
-23.164835,-80.83517,97.18681,23.120878,5.934066,3.962536,8.5,255,0
-20.879122,-81.89011,97.18681,25.758242,5.4945054,3.170029,8.533334,256,0
-19.032967,-82.76923,97.18681,28.395605,5.142857,2.6657062,8.566667,257,0
-17.538462,-83.82417,97.18681,31.208792,4.879121,2.3054755,8.6,258,0
-15.956044,-84.61539,97.18681,33.934067,4.5274725,1.9452449,8.633333,259,0
-14.549451,-84.79121,97.18681,35.604397,4.087912,1.7291067,8.666667,260,0
-13.494506,-85.67033,97.18681,37.186813,3.8241758,1.5850145,8.7,261,0
-12.0,-87.07692,97.18681,39.472527,3.4725275,1.5129683,8.733334,262,0
-10.4175825,-88.21978,97.18681,42.285713,3.2967033,1.4409221,8.766666,263,0
-9.450549,-88.74725,97.18681,44.65934,3.032967,1.4409221,8.8,264,0
-9.010989,-89.27473,97.18681,46.32967,2.857143,1.4409221,8.833333,265,0
-8.131868,-89.97802,97.18681,48.0,2.5054946,1.4409221,8.866667,266,0
-7.164835,-90.68132,97.18681,50.10989,2.2417583,1.4409221,8.9,267,0
-6.5494504,-91.20879,97.18681,51.868134,2.0659342,1.4409221,8.933333,268,0
-6.10989,-91.91209,97.18681,53.45055,1.8901099,1.4409221,8.966666,269,0
-5.4065933,-92.35165,97.18681,54.857143,1.6263736,1.4409221,9.0,270,0
-4.967033,-92.61539,97.18681,55.736263,1.4505495,1.4409221,9.033334,271,0
-4.5274725,-93.14286,97.18681,57.054947,1.3626374,1.4409221,9.066667,272,0
-4.087912,-93.58242,97.18681,58.46154,1.3626374,1.4409221,9.1,273,0
-4.0,-94.02198,97.18681,59.78022,1.0989012,1.4409221,9.133333,274,0
-3.7362638,-94.37363,97.18681,60.835163,1.0109891,1.4409221,9.166667,275,0
-3.6483517,-94.54945,97.18681,61.714287,1.0109891,1.4409221,9.2,276,0
-3.6483517,-94.63736,97.18681,62.505493,1.0109891,1.4409221,9.233334,277,0
-3.4725275,-94.9011,97.18681,63.472527,0.83516484,1.4409221,9.266666,278,0
-3.2967033,-95.25275,97.18681,64.26373,0.74725276,1.4409221,9.3,279,0
-3.032967,-95.60439,97.18681,65.31868,0.74725276,1.4409221,9.333333,280,0
-2.857143,-95.95605,97.18681,66.37363,0.74725276,1.4409221,9.366667,281,0
-2.6813188,-96.04395,97.18681,67.07692,0.74725276,1.4409221,9.4,282,0
-2.5054946,-96.30769,97.18681,68.13187,0.74725276,1.4409221,9.433333,283,0
-2.4175825,-96.39561,97.0989,69.01099,0.74725276,1.4409221,9.466666,284,0
-2.4175825,-96.39561,97.0989,69.36264,0.74725276,1.4409221,9.5,285,0
-2.4175825,-96.39561,97.0989,69.89011,0.74725276,1.4409221,9.533334,286,0
-2.4175825,-96.39561,97.0989,70.24176,0.74725276,1.4409221,9.566667,287,0
-2.4175825,-96.39561,97.0989,70.59341,0.74725276,1.4409221,9.6,288,0
-2.4175825,-96.39561,97.0989,70.85714,0.74725276,1.4409221,9.633333,289,0
-2.4175825,-96.57143,97.0989,71.03297,0.74725276,1.4409221,9.666667,290,0
-2.4175825,-96.65934,97.0989,71.03297,0.74725276,1.4409221,9.7,291,0
-2.4175825,-96.65934,97.0989,71.03297,0.74725276,1.4409221,9.733334,292,0
-2.4175825,-96.65934,97.0989,71.03297,0.74725276,1.4409221,9.766666,293,0
-2.4175825,-96.65934,97.0989,71.20879,0.74725276,1.4409221,9.8,294,0
-2.4175825,-96.65934,97.0989,71.2967,0.74725276,1.4409221,9.833333,295,0
-2.4175825,-96.65934,97.0989,71.2967,0.83516484,1.4409221,9.866667,296,0
-2.4175825,-96.65934,97.0989,71.2967,0.83516484,1.4409221,9.9,297,0
-2.4175825,-96.65934,97.0989,71.2967,0.83516484,1.4409221,9.933333,298,0
-2.4175825,-96.65934,97.0989,71.2967,0.83516484,1.4409221,9.966666,299,0
-2.4175825,-96.65934,97.0989,71.2967,0.83516484,1.4409221,10.0,300,0
-2.4175825,-96.65934,97.0989,71.2967,0.83516484,1.4409221,10.033334,301,0
-2.4175825,-96.65934,97.0989,71.2967,0.83516484,1.4409221,10.066667,302,0
-2.4175825,-96.65934,97.0989,71.12088,0.48351648,1.4409221,10.1,303,0
-2.4175825,-96.65934,97.0989,70.68132,0.13186814,1.4409221,10.133333,304,0
-2.4175825,-96.65934,97.0989,70.32967,0.13186814,1.4409221,10.166667,305,0
-2.4175825,-96.65934,97.0989,69.89011,0.043956045,1.4409221,10.2,306,0
-2.4175825,-96.65934,97.0989,69.62637,0.043956045,1.4409221,10.233334,307,0
-2.4175825,-96.65934,97.0989,69.45055,0.043956045,1.4409221,10.266666,308,0
-2.4175825,-96.65934,97.0989,69.01099,0.043956045,1.4409221,10.3,309,0
-2.4175825,-96.65934,97.0989,68.65934,0.043956045,1.4409221,10.333333,310,0
-2.4175825,-96.65934,97.0989,68.39561,0.043956045,1.4409221,10.366667,311,0
-2.4175825,-96.65934,97.0989,68.39561,0.043956045,1.4409221,10.4,312,0
-2.4175825,-96.65934,97.0989,68.30769,0.043956045,1.4409221,10.433333,313,0
-2.4175825,-96.65934,97.0989,68.21978,0.043956045,1.4409221,10.466666,314,0
-2.4175825,-96.65934,97.0989,68.21978,0.043956045,1.4409221,10.5,315,0
-2.4175825,-96.65934,97.0989,68.21978,0.30769232,1.4409221,10.533334,316,0
-2.4175825,-96.65934,97.0989,68.21978,0.6593407,1.4409221,10.566667,317,0
-2.4175825,-96.65934,97.0989,68.21978,0.83516484,1.4409221,10.6,318,0
-2.4175825,-96.65934,97.0989,68.21978,1.0989012,1.4409221,10.633333,319,0
-2.4175825,-96.65934,97.0989,68.21978,1.2747253,1.4409221,10.666667,320,0
-2.4175825,-96.65934,97.0989,68.21978,1.5384616,1.4409221,10.7,321,0
-2.4175825,-96.65934,97.0989,68.21978,1.7142857,1.4409221,10.733334,322,0
-2.4175825,-96.65934,97.0989,68.21978,1.8901099,1.4409221,10.766666,323,0
-2.4175825,-96.65934,97.0989,68.21978,1.978022,1.4409221,10.8,324,0
-2.4175825,-96.65934,97.0989,68.21978,2.2417583,1.4409221,10.833333,325,0
-2.4175825,-96.65934,97.0989,68.21978,2.3296704,1.4409221,10.866667,326,0
-2.4175825,-96.65934,97.0989,68.39561,2.3296704,1.4409221,10.9,327,0
-2.4175825,-96.65934,97.0989,68.74725,2.4175825,1.4409221,10.933333,328,0
-2.4175825,-96.65934,97.0989,69.01099,2.5934067,1.4409221,10.966666,329,0
-2.4175825,-96.65934,97.0989,69.27473,2.6813188,1.4409221,11.0,330,0
-2.6813188,-96.65934,97.0989,69.62637,2.6813188,1.4409221,11.033334,331,0
-3.2087913,-96.65934,97.0989,69.97802,2.6813188,1.4409221,11.066667,332,0
-3.7362638,-96.65934,97.0989,70.06593,2.6813188,1.4409221,11.1,333,0
-4.087912,-96.65934,97.0989,70.24176,2.6813188,1.4409221,11.133333,334,0
-4.5274725,-96.65934,97.0989,70.24176,2.6813188,1.4409221,11.166667,335,0
-4.879121,-96.65934,97.0989,70.50549,2.7692308,1.4409221,11.2,336,0
-5.230769,-96.65934,97.0989,70.50549,2.7692308,1.4409221,11.233334,337,0
-5.4945054,-96.65934,97.0989,70.50549,2.7692308,1.4409221,11.266666,338,0
-5.7582417,-96.65934,97.0989,70.68132,2.857143,1.4409221,11.3,339,0
-6.021978,-96.65934,97.0989,70.68132,2.857143,1.4409221,11.333333,340,0
-6.10989,-96.65934,97.0989,70.68132,2.857143,1.4409221,11.366667,341,0
-6.285714,-96.65934,97.0989,70.68132,2.857143,1.4409221,11.4,342,0
-6.285714,-96.65934,97.0989,70.68132,2.857143,1.4409221,11.433333,343,0
-6.285714,-96.65934,97.0989,70.68132,2.857143,1.4409221,11.466666,344,0
-6.5494504,-96.65934,97.0989,70.68132,2.857143,1.4409221,11.5,345,0
-6.7252746,-96.65934,97.0989,70.68132,2.857143,1.4409221,11.533334,346,0
-6.8131866,-96.65934,97.0989,70.68132,2.857143,1.4409221,11.566667,347,0
-7.076923,-96.65934,97.0989,70.68132,2.857143,1.4409221,11.6,348,0
-7.164835,-96.65934,97.0989,70.68132,2.857143,1.4409221,11.633333,349,0
-7.252747,-96.65934,97.0989,70.68132,2.857143,1.4409221,11.666667,350,0
-7.252747,-96.65934,97.0989,70.68132,2.857143,1.4409221,11.7,351,0
-7.252747,-96.65934,97.0989,70.68132,2.857143,1.4409221,11.733334,352,0
-7.252747,-96.65934,97.0989,70.68132,2.857143,1.4409221,11.766666,353,0
-7.252747,-96.65934,97.0989,70.68132,2.857143,1.4409221,11.8,354,0
-7.340659,-96.65934,97.0989,70.68132,2.857143,1.4409221,11.833333,355,0
-7.6043954,-96.65934,97.0989,70.68132,2.857143,1.4409221,11.866667,356,0
-7.7802196,-96.65934,97.0989,70.68132,2.857143,1.4409221,11.9,357,0
-7.8681316,-96.65934,97.0989,70.68132,2.857143,1.4409221,11.933333,358,0
-7.9560437,-96.65934,97.0989,70.68132,2.857143,1.4409221,11.966666,359,0
-8.043956,-96.65934,97.0989,70.68132,2.857143,1.4409221,12.0,360,0
-8.043956,-96.65934,97.0989,70.68132,2.857143,1.4409221,12.033334,361,0
-8.043956,-96.65934,97.0989,70.68132,2.857143,1.4409221,12.066667,362,0
-8.043956,-96.65934,97.0989,70.68132,2.857143,1.4409221,12.1,363,0
-8.043956,-96.65934,97.0989,70.68132,2.857143,1.4409221,12.133333,364,0
-8.043956,-96.65934,97.0989,70.68132,2.857143,1.4409221,12.166667,365,0
-8.043956,-96.65934,97.0989,70.68132,2.857143,1.4409221,12.2,366,0
-8.043956,-96.65934,97.0989,70.68132,2.857143,1.4409221,12.233334,367,0
-8.043956,-96.65934,97.0989,70.68132,2.857143,1.4409221,12.266666,368,0
-8.043956,-96.65934,97.0989,70.68132,2.857143,1.4409221,12.3,369,0
-8.043956,-96.65934,97.0989,70.68132,2.857143,1.4409221,12.333333,370,0
-8.043956,-96.65934,97.0989,70.68132,2.857143,1.4409221,12.366667,371,0
-8.043956,-96.65934,97.0989,70.68132,2.857143,1.4409221,12.4,372,0
-8.043956,-96.65934,97.0989,70.68132,2.857143,1.4409221,12.433333,373,0
-8.043956,-96.65934,97.0989,70.68132,2.857143,1.4409221,12.466666,374,0
-8.043956,-96.65934,97.0989,70.68132,2.857143,1.4409221,12.5,375,0
-8.043956,-96.65934,97.0989,70.68132,2.857143,1.4409221,12.533334,376,0
-8.043956,-96.65934,97.0989,70.68132,2.857143,1.4409221,12.566667,377,0
-8.043956,-96.65934,97.0989,70.68132,2.857143,1.4409221,12.6,378,0
-8.043956,-96.65934,97.0989,70.68132,2.857143,1.4409221,12.633333,379,0
-8.043956,-96.65934,97.0989,70.68132,2.857143,1.4409221,12.666667,380,0
-8.043956,-96.65934,97.0989,70.68132,2.857143,1.4409221,12.7,381,0
-8.043956,-96.65934,97.0989,70.68132,2.857143,1.4409221,12.733334,382,0
-8.043956,-96.65934,97.0989,70.68132,2.857143,1.4409221,12.766666,383,0
-8.043956,-96.65934,97.0989,70.68132,2.857143,1.4409221,12.8,384,0
-8.043956,-96.65934,97.0989,70.68132,2.857143,1.4409221,12.833333,385,0
-8.043956,-96.65934,97.0989,70.68132,2.857143,1.4409221,12.866667,386,0
-8.043956,-96.65934,97.0989,70.68132,2.857143,1.4409221,12.9,387,0
-8.043956,-96.65934,97.0989,70.68132,2.857143,1.4409221,12.933333,388,0
-8.043956,-96.65934,97.0989,70.68132,2.857143,1.4409221,12.966666,389,0
-8.043956,-96.65934,97.0989,70.68132,2.857143,1.4409221,13.0,390,0
-8.043956,-96.65934,97.0989,70.68132,2.857143,1.4409221,13.033334,391,0
-8.043956,-96.65934,97.0989,70.68132,2.857143,1.4409221,13.066667,392,0
-8.043956,-96.65934,97.0989,70.68132,2.857143,1.4409221,13.1,393,0
-8.043956,-96.65934,97.0989,70.68132,2.857143,1.4409221,13.133333,394,0
-8.043956,-96.65934,97.0989,70.68132,2.857143,1.4409221,13.166667,395,0
-8.043956,-96.65934,97.0989,70.68132,2.857143,1.4409221,13.2,396,0
-8.043956,-96.65934,97.0989,70.68132,2.857143,1.4409221,13.233334,397,0
-8.043956,-96.65934,97.0989,70.68132,2.857143,1.4409221,13.266666,398,0
-8.043956,-96.65934,97.0989,70.68132,2.857143,1.4409221,13.3,399,0
-8.043956,-96.65934,97.0989,70.68132,2.857143,1.4409221,13.333333,400,0
-8.043956,-96.65934,97.0989,70.85714,2.857143,1.4409221,13.366667,401,0
-8.043956,-96.65934,97.0989,70.85714,2.857143,1.4409221,13.4,402,0
-7.5164833,-96.65934,97.0989,70.59341,2.5054946,1.4409221,13.433333,403,0
-5.8461537,-96.21978,97.0989,69.01099,1.4505495,1.4409221,13.466666,404,0
-4.7032967,-95.69231,97.0989,66.28571,0.83516484,1.4409221,13.5,405,0
-4.3516483,-95.60439,97.0989,63.736263,0.74725276,1.4409221,13.533334,406,0
-4.0,-95.42857,97.0989,61.802197,0.5714286,1.4409221,13.566667,407,0
-3.7362638,-95.07692,97.0989,60.307693,0.48351648,1.4409221,13.6,408,0
-3.7362638,-94.37363,97.18681,58.54945,0.48351648,1.4409221,13.633333,409,0
-3.7362638,-93.67033,97.18681,56.615383,0.48351648,1.4409221,13.666667,410,0
-3.7362638,-92.61539,97.18681,54.76923,0.48351648,1.4409221,13.7,411,0
-3.8241758,-91.03297,97.18681,52.483517,0.48351648,1.4409221,13.733334,412,0
-4.0,-89.62637,97.18681,49.934067,0.48351648,1.4409221,13.766666,413,0
-4.3516483,-88.57143,97.18681,47.56044,0.48351648,1.4409221,13.8,414,0
-4.7912087,-87.25275,97.18681,45.186813,0.48351648,1.4409221,13.833333,415,0
-5.4065933,-85.49451,97.18681,42.373627,0.48351648,1.4409221,13.866667,416,0
-6.373626,-83.12088,97.18681,38.857143,0.48351648,1.4409221,13.9,417,0
-7.428571,-80.13187,97.18681,34.54945,0.48351648,1.4409221,13.933333,418,0
-8.21978,-76.79121,97.0989,29.538462,0.48351648,1.4409221,13.966666,419,0
-9.274725,-73.62637,96.92308,24.43956,0.48351648,1.4409221,14.0,420,0
-10.505494,-70.02198,96.65934,18.989012,0.48351648,1.4409221,14.033334,421,0
-12.175824,-66.24176,96.48351,13.186813,0.48351648,1.4409221,14.066667,422,0
-13.67033,-62.10989,96.39561,7.2967033,0.48351648,1.4409221,14.1,423,0
-14.989011,-57.978024,96.30769,1.1428572,0.6593407,1.4409221,14.133333,424,0
-16.131868,-54.197803,96.30769,-5.010989,0.9230769,1.4409221,14.166667,425,0
-18.153847,-50.065933,96.21978,-11.164835,1.2747253,1.4409221,14.2,426,0
-20.351648,-45.846153,96.21978,-17.67033,1.5384616,1.4409221,14.233334,427,0
-22.021978,-41.89011,96.21978,-24.0,1.7142857,1.4409221,14.266666,428,0
-23.516483,-38.285713,96.13187,-29.714285,1.978022,1.4409221,14.3,429,0
-25.45055,-34.417583,96.13187,-35.516483,2.1538463,1.4409221,14.333333,430,0
-27.208792,-30.813187,96.13187,-41.142857,2.1538463,1.4409221,14.366667,431,0
-28.43956,-27.56044,96.13187,-46.153847,2.4175825,1.4409221,14.4,432,0
-29.582418,-24.835165,96.13187,-50.197803,2.6813188,1.4409221,14.433333,433,0
-30.989012,-22.373627,96.13187,-53.978024,2.857143,1.4409221,14.466666,434,0
-32.131866,-19.824175,96.13187,-57.582417,3.2087913,1.4409221,14.5,435,0
-33.186813,-17.274725,96.13187,-61.0989,3.5604396,1.4409221,14.533334,436,0
-34.241756,-14.813187,96.13187,-64.43956,3.912088,1.4409221,14.566667,437,0
-35.384617,-12.263737,96.13187,-67.60439,4.2637362,1.4409221,14.6,438,0
-36.175823,-10.153846,96.21978,-70.24176,4.7032967,1.4409221,14.633333,439,0
-37.142857,-8.131868,96.21978,-72.96703,5.4065933,1.4409221,14.666667,440,0
-38.10989,-5.7582417,96.39561,-75.60439,6.021978,1.4409221,14.7,441,0
-38.98901,-3.7362638,96.39561,-77.8022,6.4615383,1.4409221,14.733334,442,0
-39.692307,-1.8901099,96.48351,-79.91209,7.076923,1.4409221,14.766666,443,0
-40.307693,0.13186814,96.57143,-82.02198,7.7802196,1.4409221,14.8,444,0
-40.747253,1.8901099,96.65934,-83.78022,8.307693,1.4409221,14.833333,445,0
-41.0989,3.2087913,96.65934,-84.92308,8.835165,1.4409221,14.866667,446,0
-41.45055,4.175824,96.48351,-85.71429,9.274725,1.4409221,14.9,447,0
-41.53846,5.4065933,96.39561,-86.76923,9.538462,1.4409221,14.933333,448,0
-41.714287,6.7252746,96.21978,-87.56044,9.802197,1.4409221,14.966666,449,0
-41.89011,7.8681316,96.13187,-88.26373,10.065934,1.5129683,15.0,450,0
-41.978024,8.659341,96.04395,-88.87912,10.153846,1.5129683,15.033334,451,0
-41.978024,9.626373,95.95605,-89.49451,10.241758,1.7291067,15.066667,452,0
-42.241756,10.32967,95.86813,-89.84615,10.32967,2.1613834,15.1,453,0
-42.417583,10.769231,95.86813,-90.1978,10.32967,2.1613834,15.133333,454,0
-42.417583,11.4725275,95.60439,-90.54945,10.32967,2.3775215,15.166667,455,0
-42.417583,12.175824,95.42857,-90.81319,10.32967,2.8097982,15.2,456,0
-42.417583,12.615385,95.34066,-91.16483,10.32967,3.242075,15.233334,457,0
-42.417583,13.230769,95.16483,-91.42857,10.32967,3.962536,15.266666,458,0
-42.417583,13.5824175,95.16483,-91.60439,10.32967,4.5389047,15.3,459,0
-42.505493,13.846154,95.16483,-91.60439,10.32967,5.0432277,15.333333,460,0
-42.505493,14.197803,95.07692,-91.60439,10.32967,5.979827,15.366667,461,0
-42.505493,14.549451,95.07692,-91.60439,10.32967,7.204611,15.4,462,0
-42.505493,14.549451,95.07692,-91.60439,10.32967,8.213257,15.433333,463,0
-42.505493,14.549451,95.07692,-91.60439,10.505494,9.365994,15.466666,464,0
-42.505493,14.725275,95.07692,-91.60439,10.857142,10.3746395,15.5,465,0
-42.505493,14.901099,95.07692,-91.42857,11.032967,11.167147,15.533334,466,0
-42.505493,15.252748,94.9011,-91.16483,11.032967,11.815562,15.566667,467,0
-42.505493,16.043957,94.63736,-90.81319,11.032967,12.319884,15.6,468,0
-42.505493,16.571428,94.28571,-90.63736,11.032967,12.752161,15.633333,469,0
-42.505493,17.098902,94.10989,-90.63736,11.032967,13.184438,15.666667,470,0
-42.505493,17.802198,93.67033,-90.37363,11.032967,13.472623,15.7,471,0
-42.505493,18.241758,93.49451,-90.1978,11.032967,13.976945,15.733334,472,0
-42.505493,18.32967,93.31868,-90.02198,11.032967,14.26513,15.766666,473,0
-42.505493,18.593407,92.87912,-89.93407,11.032967,14.481268,15.8,474,0
-42.505493,19.296703,92.43956,-89.84615,11.032967,14.697407,15.833333,475,0
-42.505493,19.824175,92.26373,-89.84615,11.032967,14.697407,15.866667,476,0
-42.505493,20.087912,92.26373,-89.84615,11.032967,14.697407,15.9,477,0
-42.505493,20.351648,92.08791,-89.84615,11.032967,14.697407,15.933333,478,0
-42.505493,20.351648,92.0,-89.84615,11.032967,14.697407,15.966666,479,0
-42.505493,20.527473,91.91209,-89.58242,11.032967,14.697407,16.0,480,0
-42.505493,20.615385,91.91209,-89.49451,11.032967,14.697407,16.033333,481,0
-42.505493,20.967033,91.82417,-89.49451,11.032967,14.697407,16.066668,482,0
-42.505493,21.054945,91.64835,-89.49451,11.032967,14.697407,16.1,483,0
-42.505493,21.054945,91.64835,-89.49451,11.032967,14.697407,16.133333,484,0
-42.505493,21.142857,91.64835,-89.49451,11.032967,14.697407,16.166666,485,0
-42.505493,21.142857,91.64835,-89.49451,11.032967,14.697407,16.2,486,0
-42.505493,21.142857,91.64835,-89.49451,11.032967,14.697407,16.233334,487,0
-42.505493,21.494505,91.47253,-89.49451,11.032967,14.697407,16.266666,488,0
-42.505493,21.494505,91.38461,-89.49451,11.032967,14.697407,16.3,489,0
-42.505493,21.494505,91.38461,-89.49451,11.032967,14.697407,16.333334,490,0
-42.505493,21.494505,91.38461,-89.49451,11.032967,14.697407,16.366667,491,0
-42.505493,21.494505,91.38461,-89.49451,11.032967,14.697407,16.4,492,0
-42.505493,21.582418,91.38461,-89.49451,11.032967,14.697407,16.433332,493,0
-42.505493,21.582418,91.38461,-89.49451,11.032967,14.697407,16.466667,494,0
-42.505493,21.582418,91.38461,-89.49451,11.032967,14.697407,16.5,495,0
-42.505493,21.582418,91.38461,-89.49451,11.032967,14.697407,16.533333,496,0
-42.505493,21.582418,91.38461,-89.49451,11.032967,14.697407,16.566668,497,0
-42.505493,21.67033,91.38461,-89.49451,11.032967,14.697407,16.6,498,0
-42.505493,21.934067,91.38461,-89.49451,11.032967,14.697407,16.633333,499,0
-42.505493,22.021978,91.38461,-89.49451,11.032967,14.697407,16.666666,500,0
-42.505493,22.021978,91.38461,-89.49451,11.032967,14.697407,16.7,501,0
-42.505493,22.021978,91.38461,-89.49451,10.945055,14.697407,16.733334,502,0
-42.505493,22.021978,91.38461,-89.05495,10.769231,14.697407,16.766666,503,0
-41.714287,21.934067,91.38461,-87.38461,10.4175825,14.697407,16.8,504,0
-39.692307,21.054945,91.2967,-85.53846,10.153846,14.697407,16.833334,505,0
-37.758244,19.912088,89.0989,-83.95605,10.065934,14.697407,16.866667,506,0
-36.43956,18.505495,88.74725,-82.37363,9.802197,14.985591,16.9,507,0
-35.472527,17.186813,88.83517,-81.40659,9.802197,14.985591,16.933332,508,0
-34.76923,16.395605,87.69231,-80.35165,9.802197,14.985591,16.966667,509,0
-34.153847,15.340659,87.16483,-79.12088,9.802197,14.985591,17.0,510,0
-33.626373,14.813187,86.63736,-77.89011,9.802197,14.985591,17.033333,511,0
-33.274727,14.461538,86.28571,-77.27473,9.802197,14.985591,17.066668,512,0
-32.923077,13.846154,86.02198,-76.13187,9.802197,14.985591,17.1,513,0
-32.483517,13.230769,85.84615,-74.98901,9.802197,14.985591,17.133333,514,0
-32.307693,12.791209,85.84615,-74.02198,9.802197,14.985591,17.166666,515,0
-32.131866,12.0,85.84615,-72.79121,9.802197,14.985591,17.2,516,0
-32.043957,11.296703,85.84615,-71.47253,9.802197,14.985591,17.233334,517,0
-31.956043,10.681318,85.84615,-70.50549,9.802197,14.985591,17.266666,518,0
-31.868132,9.714286,85.84615,-69.0989,9.802197,14.985591,17.3,519,0
-31.516483,8.483517,85.84615,-67.16483,9.802197,14.985591,17.333334,520,0
-30.989012,7.428571,85.84615,-65.58242,9.802197,14.985591,17.366667,521,0
-30.54945,6.6373625,85.84615,-64.35165,9.802197,14.26513,17.4,522,0
-30.10989,5.4065933,85.84615,-62.68132,9.802197,13.040346,17.433332,523,0
-29.582418,3.8241758,85.84615,-60.65934,9.802197,11.887609,17.466667,524,0
-28.967033,2.5054946,86.10989,-58.725273,9.714286,10.446686,17.5,525,0
-28.43956,1.0109891,86.63736,-56.615383,9.538462,8.357348,17.533333,526,0
-28.0,-0.6593407,86.98901,-54.32967,9.186813,6.1959653,17.566668,527,0
-27.648352,-2.1538463,87.07692,-52.21978,9.098901,4.2507205,17.6,528,0
-27.296703,-3.3846154,87.07692,-50.10989,9.098901,2.8097982,17.633333,529,0
-26.945055,-4.7032967,87.16483,-48.087914,9.098901,2.017291,17.666666,530,0
-26.593407,-6.285714,87.42857,-46.153847,9.098901,1.5850145,17.7,531,0
-26.241758,-7.9560437,87.69231,-44.21978,9.098901,1.4409221,17.733334,532,0
-26.065933,-9.186813,87.78022,-42.10989,9.098901,1.4409221,17.766666,533,0
-25.89011,-10.4175825,88.13187,-40.263737,9.098901,1.4409221,17.8,534,0
-25.538462,-11.824176,88.48351,-38.417583,9.098901,1.4409221,17.833334,535,0
-25.274725,-13.406593,88.74725,-36.307693,9.098901,1.4409221,17.866667,536,0
-25.010988,-14.989011,89.18681,-34.197803,9.098901,1.4409221,17.9,537,0
-24.747253,-16.043957,89.45055,-32.527473,9.010989,1.4409221,17.933332,538,0
-24.307692,-17.362637,89.8022,-30.681318,8.747252,1.4409221,17.966667,539,0
-23.692308,-19.384615,90.41758,-28.307692,8.307693,1.4409221,18.0,540,0
-23.164835,-21.846153,90.85714,-25.494505,7.6923075,1.4409221,18.033333,541,0
-22.725275,-24.131868,91.12088,-23.120878,7.252747,1.4409221,18.066668,542,0
-22.285715,-26.32967,91.64835,-20.571428,6.9010987,1.4409221,18.1,543,0
-22.021978,-28.351648,91.82417,-18.373627,6.197802,1.4409221,18.133333,544,0
-21.934067,-30.285715,91.91209,-16.43956,5.8461537,1.4409221,18.166666,545,0
-21.934067,-32.131866,92.0,-14.769231,5.5824175,1.4409221,18.2,546,0
-21.934067,-34.153847,92.43956,-12.923077,5.4945054,1.4409221,18.233334,547,0
-21.934067,-36.703297,92.96703,-10.461538,5.4945054,1.4409221,18.266666,548,0
-21.934067,-38.98901,93.23077,-8.175824,5.4945054,1.4409221,18.3,549,0
-21.934067,-41.01099,93.40659,-6.3296704,5.4945054,1.4409221,18.333334,550,0
-21.934067,-42.505493,93.49451,-5.4505496,5.4945054,1.4409221,18.366667,551,0
-21.934067,-44.087914,93.75824,-4.4835167,5.4945054,1.4409221,18.4,552,0
-21.934067,-45.494507,93.84615,-3.2527473,5.4945054,1.4409221,18.433332,553,0
-21.934067,-46.98901,94.10989,-1.9340659,5.4945054,1.4409221,18.466667,554,0
-21.934067,-48.65934,94.37363,-0.43956044,5.4945054,1.4409221,18.5,555,0
-22.10989,-50.417583,94.72527,1.2307693,5.4945054,1.4409221,18.533333,556,0
-22.54945,-51.736263,94.9011,2.4615386,5.7582417,1.4409221,18.566668,557,0
-23.252747,-52.703297,94.98901,3.4285715,6.197802,1.4409221,18.6,558,0
-23.692308,-54.285713,95.42857,4.659341,6.6373625,1.4409221,18.633333,559,0
-24.043957,-56.043957,95.60439,6.3296704,7.076923,1.4409221,18.666666,560,0
-24.483517,-57.802197,95.69231,7.824176,7.428571,1.3688761,18.7,561,0
-25.010988,-58.945053,95.69231,8.879121,7.9560437,1.3688761,18.733334,562,0
-25.802198,-60.263737,95.78022,9.406593,8.395604,1.3688761,18.766666,563,0
-26.681318,-61.494507,95.95605,10.197803,8.747252,1.3688761,18.8,564,0
-27.56044,-62.373627,95.95605,10.461538,9.010989,1.3688761,18.833334,565,0
-28.43956,-63.42857,96.04395,11.076923,9.450549,1.3688761,18.866667,566,0
-29.494505,-64.57143,96.13187,11.604396,9.802197,1.3688761,18.9,567,0
-30.725275,-65.36264,96.13187,11.868132,9.978022,1.3688761,18.933332,568,0
-31.516483,-65.89011,96.21978,11.956044,10.153846,1.3688761,18.966667,569,0
-32.131866,-66.24176,96.21978,11.956044,10.153846,1.3688761,19.0,570,0
-33.274727,-66.24176,96.21978,11.692307,10.241758,1.3688761,19.033333,571,0
-34.593407,-66.68132,96.21978,11.604396,10.4175825,1.3688761,19.066668,572,0
-35.736263,-66.94505,96.21978,11.428572,10.4175825,1.3688761,19.1,573,0
-36.703297,-66.94505,96.21978,10.989011,10.4175825,1.3688761,19.133333,574,0
-38.10989,-66.85714,96.21978,10.461538,10.4175825,1.3688761,19.166666,575,0
-39.78022,-66.59341,96.21978,9.67033,10.4175825,1.3688761,19.2,576,0
-41.274727,-66.59341,96.21978,8.879121,10.4175825,1.3688761,19.233334,577,0
-42.76923,-66.24176,96.21978,8.0,10.241758,1.3688761,19.266666,578,0
-44.263737,-65.62637,96.21978,7.2967033,9.89011,1.3688761,19.3,579,0
-45.582417,-65.27473,96.21978,6.769231,9.538462,1.3688761,19.333334,580,0
-46.813187,-64.83517,96.21978,5.978022,9.3626375,1.3688761,19.366667,581,0
-48.043957,-64.39561,96.21978,5.2747254,9.098901,1.3688761,19.4,582,0
-49.186813,-63.868134,96.21978,4.571429,8.923077,1.3688761,19.433332,583,0
-50.241756,-63.42857,96.13187,4.1318684,8.835165,1.3688761,19.466667,584,0
-51.56044,-62.813187,96.13187,3.4285715,8.659341,1.3688761,19.5,585,0
-52.87912,-62.197803,96.13187,2.901099,8.395604,1.3688761,19.533333,586,0
-53.846153,-61.582417,96.13187,2.1098902,8.21978,1.3688761,19.566668,587,0
-54.725273,-60.967033,96.13187,1.4945055,7.9560437,1.3688761,19.6,588,0
-55.604397,-60.43956,96.04395,0.96703297,7.7802196,1.3688761,19.633333,589,0
-56.747253,-59.736263,96.04395,0.17582418,7.6043954,1.3688761,19.666666,590,0
-57.714287,-59.12088,96.04395,-0.26373628,7.5164833,1.3688761,19.7,591,0
-58.241756,-58.76923,95.95605,-0.7032967,7.428571,1.3688761,19.733334,592,0
-58.76923,-58.153847,95.95605,-1.4065934,7.252747,1.3688761,19.766666,593,0
-59.472527,-57.626373,95.95605,-1.9340659,7.252747,1.3688761,19.8,594,0
-60.087914,-57.0989,95.95605,-2.3736265,7.164835,1.3688761,19.833334,595,0
-60.703297,-56.57143,95.95605,-2.901099,7.164835,1.3688761,19.866667,596,0
-61.67033,-55.868134,95.86813,-3.2527473,7.164835,1.3688761,19.9,597,0
-62.54945,-55.34066,95.86813,-3.6923077,7.164835,1.3688761,19.933332,598,0
-63.076923,-54.9011,95.86813,-4.1318684,7.164835,1.3688761,19.966667,599,0
-63.604397,-54.46154,95.86813,-4.4835167,7.164835,1.3688761,20.0,600,0
-64.21978,-53.934067,95.86813,-4.835165,7.164835,1.3688761,20.033333,601,0
-64.57143,-53.67033,95.86813,-5.0989013,6.9010987,1.3688761,20.066668,602,0
-64.65934,-52.967033,95.78022,-5.978022,6.021978,1.3688761,20.1,603,0
-63.42857,-51.12088,95.78022,-7.5604396,4.175824,1.3688761,20.133333,604,0
-60.43956,-49.714287,95.69231,-9.230769,2.6813188,1.3688761,20.166666,605,0
-56.483517,-48.923077,95.69231,-10.197803,1.7142857,1.3688761,20.2,606,0
-52.79121,-48.57143,95.69231,-10.813187,1.2747253,1.3688761,20.233334,607,0
-50.065933,-48.57143,95.78022,-11.164835,1.0109891,1.3688761,20.266666,608,0
-48.65934,-48.57143,95.78022,-11.164835,1.0109891,1.3688761,20.3,609,0
-48.21978,-48.57143,95.78022,-11.604396,0.9230769,1.3688761,20.333334,610,0
-48.131866,-48.395603,95.78022,-12.21978,0.9230769,1.3688761,20.366667,611,0
-48.043957,-48.21978,95.78022,-13.010989,0.9230769,1.3688761,20.4,612,0
-48.043957,-48.307693,95.78022,-13.450549,0.9230769,1.3688761,20.433332,613,0
-48.043957,-48.307693,95.78022,-13.714286,0.9230769,1.3688761,20.466667,614,0
-48.043957,-48.307693,95.78022,-14.153846,1.0109891,1.3688761,20.5,615,0
-48.043957,-48.131866,95.78022,-14.769231,1.2747253,1.3688761,20.533333,616,0
-48.131866,-47.956043,95.78022,-15.560439,1.6263736,1.3688761,20.566668,617,0
-48.483517,-47.516483,95.78022,-16.615385,1.6263736,1.3688761,20.6,618,0
-49.186813,-47.34066,95.78022,-17.758242,1.6263736,1.3688761,20.633333,619,0
-50.065933,-46.46154,95.78022,-19.076923,1.6263736,1.3688761,20.666666,620,0
-51.032967,-45.31868,95.78022,-20.65934,1.6263736,1.3688761,20.7,621,0
-51.912086,-45.054947,95.78022,-22.065933,1.6263736,1.3688761,20.733334,622,0
-52.967033,-44.79121,95.78022,-23.648352,1.6263736,1.3688761,20.766666,623,0
-54.10989,-43.736263,95.78022,-24.791208,1.6263736,1.3688761,20.8,624,0
-55.252747,-42.76923,95.78022,-25.67033,1.6263736,1.3688761,20.833334,625,0
-56.307693,-41.53846,95.78022,-27.164835,1.6263736,1.3688761,20.866667,626,0
-57.186813,-40.21978,95.78022,-29.010988,1.6263736,1.3688761,20.9,627,0
-58.241756,-39.164837,95.78022,-30.76923,1.6263736,1.3688761,20.933332,628,0
-59.472527,-38.10989,95.78022,-31.824175,1.6263736,1.3688761,20.966667,629,0
-60.615383,-37.054947,95.78022,-32.79121,1.6263736,1.3688761,21.0,630,0
-61.494507,-36.0,95.78022,-33.846153,1.6263736,1.3688761,21.033333,631,0
-62.46154,-35.12088,95.69231,-34.9011,1.6263736,1.3688761,21.066668,632,0
-63.252747,-34.417583,95.69231,-35.78022,1.6263736,1.3688761,21.1,633,0
-64.04395,-34.065933,95.69231,-35.956043,1.6263736,1.3688761,21.133333,634,0
-64.83517,-33.274727,95.69231,-36.307693,1.978022,1.3688761,21.166666,635,0
-65.53846,-32.395603,95.69231,-37.0989,2.3296704,1.3688761,21.2,636,0
-66.24176,-31.692308,95.69231,-37.714287,2.7692308,1.3688761,21.233334,637,0
-67.12088,-31.076923,95.69231,-38.153847,3.032967,1.3688761,21.266666,638,0
-67.82417,-30.461538,95.69231,-38.76923,3.2967033,1.3688761,21.3,639,0
-68.43956,-29.846153,95.69231,-39.20879,3.7362638,1.3688761,21.333334,640,0
-69.31868,-29.494505,95.69231,-39.296703,4.087912,1.3688761,21.366667,641,0
-70.02198,-28.967033,95.69231,-39.384617,4.2637362,1.3688761,21.4,642,0
-70.28571,-28.175825,95.69231,-40.087914,4.5274725,1.3688761,21.433332,643,0
-70.28571,-27.384615,95.69231,-40.967033,4.967033,1.3688761,21.466667,644,0
-70.63736,-26.76923,95.69231,-41.67033,5.230769,1.3688761,21.5,645,0
-71.07692,-26.32967,95.69231,-42.10989,5.4945054,1.3688761,21.533333,646,0
-71.42857,-25.978022,95.69231,-42.373627,5.8461537,1.3688761,21.566668,647,0
-71.51649,-25.274725,95.69231,-43.164837,6.197802,1.3688761,21.6,648,0
-71.51649,-24.923077,95.69231,-43.516483,6.4615383,1.3688761,21.633333,649,0
-71.51649,-24.395605,95.69231,-44.043957,6.6373625,1.3688761,21.666666,650,0
-71.51649,-23.78022,95.69231,-44.65934,6.989011,1.3688761,21.7,651,0
-71.51649,-23.164835,95.69231,-45.274727,7.252747,1.3688761,21.733334,652,0
-71.51649,-22.725275,95.69231,-45.626373,7.5164833,1.3688761,21.766666,653,0
-71.51649,-22.285715,95.69231,-45.978024,7.8681316,1.4409221,21.8,654,0
-71.51649,-21.494505,95.69231,-46.857143,8.21978,1.5129683,21.833334,655,0
-71.51649,-20.791208,95.69231,-47.64835,8.659341,1.5850145,21.866667,656,0
-71.07692,-20.0,95.69231,-48.35165,9.186813,2.1613834,21.9,657,0
-70.28571,-19.208792,95.69231,-48.967033,9.714286,2.8097982,21.933332,658,0
-69.23077,-18.593407,95.69231,-49.758244,10.241758,3.7463977,21.966667,659,0
-68.26373,-18.153847,95.69231,-50.10989,10.769231,4.755043,22.0,660,0
-66.68132,-17.362637,95.69231,-50.813187,11.560439,6.051873,22.033333,661,0
-65.01099,-16.571428,95.69231,-51.516483,12.175824,7.853026,22.066668,662,0
-63.42857,-15.956044,95.69231,-51.78022,12.703297,9.293948,22.1,663,0
-61.846153,-15.428572,95.51649,-51.78022,13.142858,10.662825,22.133333,664,0
-60.527473,-14.989011,95.42857,-51.868134,13.67033,11.887609,22.166666,665,0
-59.032967,-14.373627,95.07692,-52.21978,14.197803,12.752161,22.2,666,0
-57.714287,-13.846154,94.9011,-52.395603,14.461538,13.472623,22.233334,667,0
-56.57143,-13.230769,94.72527,-52.65934,14.813187,13.976945,22.266666,668,0
-55.34066,-12.5274725,94.28571,-53.01099,15.164835,14.26513,22.3,669,0
-53.934067,-11.824176,93.75824,-53.45055,15.604396,14.481268,22.333334,670,0
-52.87912,-10.945055,93.23077,-53.802197,15.868132,14.6253605,22.366667,671,0
-52.175823,-10.681318,92.87912,-54.065933,16.043957,14.697407,22.4,672,0
-51.12088,-9.978022,92.26373,-54.505493,16.307692,14.697407,22.433332,673,0
-49.978024,-8.923077,91.64835,-55.032967,16.483517,14.697407,22.466667,674,0
-48.923077,-7.9560437,91.03297,-55.384617,16.571428,14.697407,22.5,675,0
-48.131866,-7.076923,90.41758,-55.736263,16.747253,14.697407,22.533333,676,0
-47.516483,-6.285714,89.8022,-56.0,16.747253,14.697407,22.566668,677,0
-46.813187,-5.230769,89.01099,-56.263737,16.747253,14.697407,22.6,678,0
-46.197803,-4.2637362,88.39561,-56.615383,16.747253,14.697407,22.633333,679,0
-45.582417,-3.4725275,87.78022,-56.79121,16.747253,14.697407,22.666666,680,0
-44.967033,-2.945055,87.25275,-56.967033,16.747253,14.697407,22.7,681,0
-44.43956,-2.0659342,86.46154,-57.23077,16.747253,14.697407,22.733334,682,0
-44.0,-0.83516484,85.58242,-57.582417,16.747253,14.697407,22.766666,683,0
-43.56044,0.13186814,84.87912,-57.846153,16.747253,14.697407,22.8,684,0
-43.296703,1.0989012,84.08791,-58.021976,16.747253,14.697407,22.833334,685,0
-43.032967,2.0659342,83.38461,-58.285713,16.747253,14.697407,22.866667,686,0
-42.857143,2.945055,82.76923,-58.54945,16.747253,14.697407,22.9,687,0
-42.593407,4.087912,81.8022,-58.98901,16.747253,14.697407,22.933332,688,0
-42.32967,5.230769,80.92308,-59.34066,16.747253,14.697407,22.966667,689,0
-42.065933,6.021978,80.13187,-59.516483,16.747253,14.697407,23.0,690,0
-41.802197,7.076923,79.25275,-59.956043,16.747253,14.697407,23.033333,691,0
-41.626373,8.307693,78.28571,-60.307693,16.747253,14.697407,23.066668,692,0
-41.45055,9.098901,77.67033,-60.483517,16.747253,14.409222,23.1,693,0
-41.186813,9.89011,77.05495,-60.835163,16.747253,14.26513,23.133333,694,0
-40.923077,10.681318,76.43956,-61.01099,16.747253,14.26513,23.166666,695,0
-40.57143,11.4725275,75.91209,-61.362637,16.747253,14.26513,23.2,696,0
-40.307693,12.0,75.38461,-61.53846,16.747253,14.26513,23.233334,697,0
-39.956043,12.615385,74.85714,-61.89011,16.747253,14.26513,23.266666,698,0
-39.604397,13.054945,74.59341,-62.065933,16.747253,14.26513,23.3,699,0
-39.252747,13.406593,74.41758,-62.065933,16.747253,14.26513,23.333334,700,0
-38.54945,14.10989,74.15385,-62.417583,16.747253,14.26513,23.366667,701,0
-38.373627,14.285714,74.06593,-62.593407,16.747253,14.26513,23.4,702,0
-38.373627,14.373627,73.89011,-62.593407,16.307692,14.26513,23.433332,703,0
-38.373627,14.461538,73.53846,-62.593407,15.956044,14.481268,23.466667,704,0
-38.285713,14.461538,73.27473,-62.593407,15.692307,14.697407,23.5,705,0
-38.285713,14.461538,72.83517,-62.32967,15.516483,14.697407,23.533333,706,0
-38.285713,14.461538,72.48351,-61.89011,15.340659,14.697407,23.566668,707,0
-38.285713,14.461538,72.30769,-61.45055,15.164835,14.697407,23.6,708,0
-38.373627,14.461538,72.04395,-60.747253,15.076923,14.697407,23.633333,709,0
-38.373627,14.461538,71.78022,-59.956043,14.989011,14.697407,23.666666,710,0
-38.373627,14.461538,71.60439,-59.34066,14.989011,14.697407,23.7,711,0
-38.373627,14.461538,71.34066,-58.98901,14.989011,14.697407,23.733334,712,0
-38.373627,14.461538,71.16483,-58.46154,14.989011,14.697407,23.766666,713,0
-38.373627,14.461538,70.9011,-57.758244,14.989011,14.697407,23.8,714,0
-38.373627,14.461538,70.9011,-57.142857,14.989011,14.697407,23.833334,715,0
-38.373627,14.461538,70.72527,-56.43956,14.989011,14.697407,23.866667,716,0
-38.373627,14.461538,70.54945,-56.0,14.989011,14.697407,23.9,717,0
-38.373627,14.461538,70.37363,-55.824177,14.989011,14.697407,23.933332,718,0
-38.373627,14.461538,70.10989,-55.20879,14.989011,14.697407,23.966667,719,0
-38.285713,14.461538,69.93407,-54.417583,14.989011,14.697407,24.0,720,0
-38.021976,14.461538,69.93407,-53.802197,14.989011,14.697407,24.033333,721,0
-37.846153,14.461538,69.93407,-53.274727,14.989011,14.697407,24.066668,722,0
-37.582417,14.373627,69.93407,-52.395603,14.989011,14.697407,24.1,723,0
-37.406593,14.10989,69.93407,-51.516483,14.989011,14.697407,24.133333,724,0
-37.142857,13.846154,69.93407,-50.54945,14.989011,14.697407,24.166666,725,0
-36.967033,13.318682,69.93407,-49.582417,14.989011,14.697407,24.2,726,0
-36.703297,12.879121,69.93407,-49.054947,14.989011,14.697407,24.233334,727,0
-36.527473,12.175824,69.93407,-48.175823,14.989011,14.697407,24.266666,728,0
-36.35165,11.560439,69.93407,-47.296703,14.989011,14.697407,24.3,729,0
-36.175823,11.120879,69.93407,-46.505493,14.989011,14.697407,24.333334,730,0
-35.824177,10.32967,69.93407,-45.53846,14.989011,14.697407,24.366667,731,0
-35.384617,9.274725,69.93407,-44.307693,14.989011,14.697407,24.4,732,0
-35.12088,8.571428,69.93407,-43.252747,14.989011,14.697407,24.433332,733,0
-35.032967,7.8681316,69.93407,-42.373627,14.989011,14.697407,24.466667,734,0
-34.76923,6.989011,70.28571,-41.67033,14.989011,13.976945,24.5,735,0
-34.593407,5.934066,70.63736,-40.79121,14.989011,12.103746,24.533333,736,0
-34.417583,4.7032967,71.07692,-39.824177,14.725275,9.798271,24.566668,737,0
-34.32967,3.7362638,71.42857,-39.032967,14.461538,7.4927955,24.6,738,0
-34.153847,2.6813188,71.78022,-38.153847,14.197803,5.54755,24.633333,739,0
-34.065933,1.8901099,72.04395,-37.362637,14.197803,4.178674,24.666666,740,0
-33.978024,1.0989012,72.21978,-36.57143,14.285714,3.8184438,24.7,741,0
-33.802197,0.6593407,72.30769,-36.21978,14.285714,3.8184438,24.733334,742,0
-33.45055,-0.043956045,72.83517,-35.604397,14.285714,3.8184438,24.766666,743,0
-33.274727,-0.9230769,73.36264,-34.725273,14.285714,3.8184438,24.8,744,0
-33.186813,-1.0109891,73.45055,-34.637363,14.285714,3.8184438,24.833334,745,0
-33.186813,-1.0989012,73.45055,-34.725273,14.285714,3.8184438,24.866667,746,0
-32.923077,-1.8901099,73.8022,-34.021976,14.285714,3.8184438,24.9,747,0
-32.395603,-3.4725275,74.32967,-32.527473,14.021978,3.8184438,24.933332,748,0
-31.868132,-4.5274725,74.59341,-31.296703,13.758242,3.8184438,24.966667,749,0
-31.428572,-5.4945054,74.68132,-30.593407,13.758242,3.8184438,25.0,750,0
-31.34066,-6.10989,74.76923,-30.153847,13.758242,3.8184438,25.033333,751,0
-31.164835,-7.340659,75.2967,-29.098902,13.758242,3.8184438,25.066668,752,0
-30.901098,-8.747252,75.91209,-27.692308,13.758242,3.8184438,25.1,753,0
-30.54945,-9.714286,76.26373,-26.637363,13.67033,3.8184438,25.133333,754,0
-30.285715,-11.208791,76.96703,-25.142857,13.406593,3.8184438,25.166666,755,0
-29.934067,-13.142858,77.58242,-23.296703,13.142858,3.8184438,25.2,756,0
-29.67033,-14.373627,77.67033,-21.89011,12.879121,3.8184438,25.233334,757,0
-29.67033,-15.516483,77.93407,-21.010988,12.791209,3.8184438,25.266666,758,0
-29.67033,-17.010988,78.54945,-19.692308,12.791209,3.8184438,25.3,759,0
-29.758242,-19.032967,79.25275,-18.021978,12.879121,3.8184438,25.333334,760,0
-29.758242,-20.175825,79.34066,-17.142857,12.879121,3.8184438,25.366667,761,0
-29.758242,-20.527473,79.34066,-17.142857,12.879121,3.8184438,25.4,762,0
-29.758242,-21.142857,79.42857,-16.615385,13.230769,3.8184438,25.433332,763,0
-29.758242,-22.197802,79.69231,-16.175825,13.406593,3.8184438,25.466667,764,0
-29.758242,-23.076923,79.69231,-16.263737,13.406593,3.8184438,25.5,765,0
-29.758242,-24.043957,79.69231,-16.087912,13.846154,3.8184438,25.533333,766,0
-29.846153,-24.835165,79.86813,-16.087912,14.285714,3.8184438,25.566668,767,0
-29.846153,-25.626373,80.13187,-16.087912,14.549451,3.8184438,25.6,768,0
-30.285715,-26.065933,80.21978,-16.263737,14.725275,3.8184438,25.633333,769,0
-30.989012,-26.241758,80.30769,-16.703297,14.989011,3.8184438,25.666666,770,0
-31.78022,-26.505495,80.30769,-17.406593,15.428572,3.8184438,25.7,771,0
-32.65934,-26.945055,80.39561,-17.934067,15.78022,3.8184438,25.733334,772,0
-33.53846,-27.472527,80.65934,-18.373627,16.043957,3.8184438,25.766666,773,0
-34.593407,-27.736263,80.65934,-19.076923,16.307692,3.8184438,25.8,774,0
-36.0,-28.087912,80.74725,-20.21978,16.747253,3.8184438,25.833334,775,0
-37.494507,-28.527473,80.83517,-21.362637,17.186813,3.8184438,25.866667,776,0
-38.98901,-28.703297,80.83517,-22.241758,17.538462,3.8184438,25.9,777,0
-40.57143,-28.791208,80.83517,-23.384615,17.802198,3.8184438,25.933332,778,0
-42.241756,-28.791208,80.92308,-24.615385,17.978022,3.8184438,25.966667,779,0
-43.912086,-29.054945,81.36264,-25.318682,18.241758,3.8184438,26.0,780,0
-45.23077,-29.494505,81.8022,-25.67033,18.32967,3.8184438,26.033333,781,0
-46.46154,-29.494505,81.8022,-26.54945,18.32967,3.8184438,26.066668,782,0
-47.692307,-29.846153,81.8022,-27.076923,18.32967,3.8184438,26.1,783,0
-49.0989,-30.461538,82.06593,-27.164835,18.32967,3.8184438,26.133333,784,0
-50.857143,-31.34066,82.85714,-27.164835,18.32967,3.8184438,26.166666,785,0
-52.263737,-31.604395,83.2967,-27.428572,18.32967,3.8184438,26.2,786,0
-53.582417,-31.868132,83.64835,-27.868132,18.32967,3.8184438,26.233334,787,0
-54.98901,-32.131866,84.0,-28.21978,18.32967,3.8184438,26.266666,788,0
-56.395603,-32.131866,84.26373,-28.483517,18.32967,3.8184438,26.3,789,0
-57.714287,-32.21978,84.52747,-28.747253,18.241758,3.8184438,26.333334,790,0
-59.032967,-32.21978,84.96703,-28.747253,17.802198,3.8184438,26.366667,791,0
-60.35165,-32.21978,85.49451,-29.010988,17.538462,3.8184438,26.4,792,0
-62.021976,-32.21978,85.84615,-29.45055,17.274725,3.8184438,26.433332,793,0
-63.516483,-32.21978,85.93407,-29.714285,17.010988,3.8184438,26.466667,794,0
-68.61539,-33.53846,87.51649,-29.89011,16.043957,3.8184438,0.0,0,1
-68.61539,-33.53846,87.51649,-29.89011,16.043957,3.8184438,0.033333335,1,1
-68.61539,-33.53846,87.51649,-29.89011,16.043957,3.8184438,0.06666667,2,1
-68.61539,-33.978024,88.13187,-30.417582,15.692307,3.8184438,0.1,3,1
-68.61539,-35.20879,90.06593,-32.087914,15.428572,3.8184438,0.13333334,4,1
-68.61539,-36.175823,92.17583,-33.494507,15.164835,3.8184438,0.16666667,5,1
-68.7033,-36.703297,93.40659,-34.021976,15.252748,3.8184438,0.2,6,1
-68.87912,-37.142857,93.84615,-34.021976,15.252748,3.8184438,0.23333333,7,1
-69.05495,-37.494507,94.10989,-34.021976,15.252748,3.8184438,0.26666668,8,1
-69.14286,-37.758244,94.1978,-34.021976,15.516483,3.8184438,0.3,9,1
-69.23077,-38.021976,94.1978,-34.021976,15.78022,3.8184438,0.33333334,10,1
-69.40659,-38.197803,94.1978,-34.021976,16.043957,3.8184438,0.36666667,11,1
-69.49451,-38.46154,94.1978,-33.846153,16.307692,3.8184438,0.4,12,1
-69.75824,-38.813187,94.1978,-33.406593,16.571428,3.8184438,0.43333334,13,1
-70.28571,-39.34066,94.1978,-32.87912,16.747253,3.8184438,0.46666667,14,1
-70.81319,-39.78022,94.1978,-32.175823,16.747253,3.8184438,0.5,15,1
-71.25275,-40.21978,94.1978,-31.472527,17.010988,3.8184438,0.53333336,16,1
-71.60439,-40.57143,94.1978,-30.76923,17.274725,3.8184438,0.56666666,17,1
-72.21978,-41.01099,94.1978,-30.065933,17.45055,3.8184438,0.6,18,1
-73.0989,-41.45055,94.1978,-29.274725,17.626373,3.8184438,0.6333333,19,1
-73.8022,-41.714287,94.1978,-28.571428,17.89011,3.8184438,0.6666667,20,1
-74.50549,-42.065933,94.1978,-27.868132,17.978022,3.8184438,0.7,21,1
-75.2967,-42.505493,94.1978,-26.989012,17.978022,3.8184438,0.73333335,22,1
-76.0,-42.857143,94.1978,-26.197802,17.89011,3.8184438,0.76666665,23,1
-76.87912,-43.20879,94.1978,-25.318682,17.89011,3.8184438,0.8,24,1
-77.84615,-43.56044,94.1978,-24.351648,17.89011,3.8184438,0.8333333,25,1
-78.81319,-43.912086,94.1978,-23.472527,17.89011,3.8184438,0.8666667,26,1
-79.69231,-44.175823,94.1978,-22.681318,17.89011,3.8184438,0.9,27,1
-80.74725,-44.43956,94.1978,-21.89011,17.89011,3.8184438,0.93333334,28,1
-81.97802,-44.615383,94.1978,-21.010988,17.89011,3.8184438,0.96666664,29,1
-83.12088,-44.615383,94.28571,-20.131868,17.802198,3.8184438,1.0,30,1
-84.17583,-44.703297,94.72527,-19.516483,17.45055,3.8184438,1.0333333,31,1
-85.49451,-44.703297,95.07692,-18.901098,17.098902,3.8184438,1.0666667,32,1
-86.81319,-44.703297,95.25275,-18.285715,16.923077,3.8184438,1.1,33,1
-87.78022,-44.703297,95.25275,-17.846153,16.747253,3.8184438,1.1333333,34,1
-88.65934,-44.703297,95.25275,-17.318682,16.483517,3.8184438,1.1666666,35,1
-89.8022,-44.703297,95.25275,-16.703297,16.21978,3.8184438,1.2,36,1
-90.94505,-44.703297,95.25275,-16.351648,16.131868,3.8184438,1.2333333,37,1
-91.47253,-44.703297,95.25275,-16.263737,16.043957,3.8184438,1.2666667,38,1
-91.73627,-44.703297,95.25275,-16.175825,16.043957,3.8184438,1.3,39,1
-91.82417,-44.703297,95.25275,-15.912087,15.956044,3.8184438,1.3333334,40,1
-91.91209,-44.703297,95.25275,-15.560439,15.868132,3.8184438,1.3666667,41,1
-92.0,-44.703297,95.25275,-15.384615,15.692307,3.8184438,1.4,42,1
-92.0,-44.703297,95.25275,-15.120879,15.692307,3.8184438,1.4333333,43,1
-92.0,-44.527473,95.25275,-15.032967,15.692307,3.8184438,1.4666667,44,1
-92.0,-44.43956,95.25275,-14.857142,15.692307,3.8184438,1.5,45,1
-92.0,-44.35165,95.25275,-14.857142,15.692307,3.8184438,1.5333333,46,1
-92.0,-44.615383,95.25275,-14.857142,15.604396,4.1066284,1.5666667,47,1
-92.0,-45.054947,95.25275,-14.857142,15.604396,4.3948126,1.6,48,1
-92.0,-45.31868,95.34066,-14.857142,15.604396,5.835735,1.6333333,49,1
-92.0,-45.406593,95.42857,-14.857142,15.604396,8.357348,1.6666666,50,1
-92.0,-45.406593,95.42857,-14.857142,15.956044,11.3832855,1.7,51,1
-92.0,-45.406593,95.42857,-14.857142,16.307692,14.193084,1.7333333,52,1
-92.0,-45.406593,95.42857,-14.857142,16.483517,16.49856,1.7666667,53,1
-92.0,-45.406593,95.42857,-15.120879,16.65934,18.011528,1.8,54,1
-92.0,-45.406593,95.42857,-15.4725275,16.747253,18.948128,1.8333334,55,1
-92.0,-45.406593,95.42857,-15.912087,16.747253,19.524496,1.8666667,56,1
-92.0,-45.406593,95.34066,-16.263737,16.747253,19.884726,1.9,57,1
-92.0,-45.406593,95.16483,-16.703297,16.747253,20.100864,1.9333333,58,1
-92.0,-45.406593,95.07692,-17.054945,16.747253,20.17291,1.9666667,59,1
-92.0,-45.406593,94.63736,-17.67033,16.747253,20.17291,2.0,60,1
-92.0,-45.846153,93.75824,-18.197802,16.747253,20.17291,2.0333333,61,1
-92.0,-46.54945,92.61539,-18.725275,16.747253,20.17291,2.0666666,62,1
-91.12088,-47.164837,91.64835,-19.428572,16.747253,20.17291,2.1,63,1
-89.45055,-48.043957,90.59341,-20.131868,16.747253,20.17291,2.1333334,64,1
-87.25275,-48.923077,89.53846,-20.747253,16.747253,19.884726,2.1666667,65,1
-84.43956,-49.89011,88.48351,-21.186813,16.747253,19.524496,2.2,66,1
-81.18681,-50.945053,87.78022,-21.538462,16.747253,19.236311,2.2333333,67,1
-77.49451,-52.0,87.42857,-21.89011,16.747253,18.659943,2.2666667,68,1
-73.36264,-52.967033,87.34066,-21.978022,16.747253,18.155619,2.3,69,1
-69.05495,-54.10989,87.34066,-21.978022,16.747253,17.291067,2.3333333,70,1
-64.30769,-55.516483,87.34066,-21.714285,16.747253,15.561959,2.3666666,71,1
-59.472527,-57.0989,87.34066,-20.835165,16.747253,13.32853,2.4,72,1
-54.285713,-58.593407,87.86813,-19.428572,16.747253,10.8789625,2.4333334,73,1
-49.274727,-59.912086,89.01099,-17.67033,16.65934,8.573487,2.4666667,74,1
-44.527473,-61.406593,90.68132,-15.4725275,16.307692,6.4121037,2.5,75,1
-39.604397,-63.34066,92.79121,-13.010989,15.516483,4.682997,2.5333333,76,1
-35.032967,-65.0989,94.63736,-10.10989,14.725275,3.314121,2.5666666,77,1
-30.637363,-66.68132,96.04395,-6.769231,13.934066,2.3775215,2.6,78,1
-27.032967,-68.08791,96.21978,-3.5164835,13.054945,1.8731989,2.6333334,79,1
-23.604395,-69.75824,96.39561,-0.26373628,11.912087,1.5129683,2.6666667,80,1
-20.791208,-71.51649,96.57143,3.6043956,11.032967,1.4409221,2.7,81,1
-18.153847,-72.92308,96.65934,7.5604396,10.065934,1.4409221,2.7333333,82,1
-16.043957,-73.97802,96.74725,11.516483,9.010989,1.4409221,2.7666667,83,1
-14.197803,-74.76923,96.74725,15.208791,8.307693,1.4409221,2.8,84,1
-12.615385,-75.64835,96.83517,18.725275,7.6923075,1.4409221,2.8333333,85,1
-11.384615,-76.52747,96.92308,22.153847,6.989011,1.4409221,2.8666666,86,1
-10.32967,-77.23077,96.92308,25.758242,6.4615383,1.4409221,2.9,87,1
-9.098901,-78.1978,97.01099,29.274725,6.021978,1.4409221,2.9333334,88,1
-8.131868,-79.07692,97.0989,32.527473,5.6703296,1.4409221,2.9666667,89,1
-7.5164833,-79.95605,97.0989,35.692307,5.230769,1.4409221,3.0,90,1
-6.989011,-80.74725,97.0989,38.505493,4.967033,1.4409221,3.0333333,91,1
-6.285714,-81.97802,97.0989,41.494507,4.6153846,1.4409221,3.0666666,92,1
-5.6703296,-83.20879,97.0989,44.483517,4.4395604,1.4409221,3.1,93,1
-5.230769,-84.17583,97.0989,47.032967,4.175824,1.4409221,3.1333334,94,1
-4.7912087,-85.05495,97.0989,49.142857,4.0,1.4409221,3.1666667,95,1
-4.5274725,-85.93407,97.0989,50.98901,3.8241758,1.4409221,3.2,96,1
-4.175824,-86.9011,97.0989,52.65934,3.6483517,1.4409221,3.2333333,97,1
-3.8241758,-88.04395,97.0989,54.593407,3.3846154,1.4409221,3.2666667,98,1
-3.7362638,-88.83517,97.0989,56.263737,3.2967033,1.4409221,3.3,99,1
-3.6483517,-89.71429,97.0989,57.934067,3.2087913,1.4409221,3.3333333,100,1
-3.6483517,-90.94505,97.0989,59.604397,3.032967,1.4409221,3.3666666,101,1
-3.6483517,-91.56044,97.0989,60.747253,2.857143,1.4409221,3.4,102,1
-3.2967033,-92.08791,97.0989,61.626373,2.7692308,1.4409221,3.4333334,103,1
-2.857143,-92.26373,97.0989,61.89011,2.5934067,1.4409221,3.4666667,104,1
-2.5934067,-92.26373,97.0989,61.978024,2.5934067,1.4409221,3.5,105,1
-2.5934067,-92.26373,97.0989,62.153847,2.5934067,1.4409221,3.5333333,106,1
-2.5934067,-92.26373,97.0989,62.32967,2.5934067,1.4409221,3.5666666,107,1
-2.5934067,-92.52747,97.0989,62.417583,2.5934067,1.4409221,3.6,108,1
-2.5934067,-92.61539,97.0989,62.505493,2.5934067,1.4409221,3.6333334,109,1
-2.5934067,-92.61539,97.0989,62.505493,2.5934067,1.4409221,3.6666667,110,1
-2.5934067,-92.61539,97.0989,62.505493,2.5934067,1.4409221,3.7,111,1
-2.5934067,-92.61539,97.0989,62.505493,2.5934067,1.4409221,3.7333333,112,1
-2.5934067,-92.61539,97.0989,62.505493,2.5934067,1.4409221,3.7666667,113,1
-2.5934067,-92.61539,97.0989,62.505493,2.5934067,1.4409221,3.8,114,1
-2.5934067,-92.79121,97.0989,62.505493,2.5934067,1.4409221,3.8333333,115,1
-2.5934067,-92.87912,97.0989,62.593407,2.5934067,1.4409221,3.8666666,116,1
-2.5934067,-93.14286,97.0989,62.76923,2.5934067,1.4409221,3.9,117,1
-2.5934067,-93.23077,97.0989,63.12088,2.5934067,1.4409221,3.9333334,118,1
-2.5934067,-93.40659,97.0989,63.56044,2.5934067,1.4409221,3.9666667,119,1
-2.5934067,-93.58242,97.0989,63.736263,2.5934067,1.4409221,4.0,120,1
-2.5934067,-93.75824,97.0989,64.08791,2.5934067,1.4409221,4.0333333,121,1
-2.5934067,-94.02198,97.0989,64.52747,2.6813188,1.4409221,4.0666666,122,1
-2.5934067,-94.10989,97.0989,64.96703,2.857143,1.4409221,4.1,123,1
-2.5934067,-94.28571,97.0989,65.23077,3.032967,1.4409221,4.133333,124,1
-2.5934067,-94.37363,97.0989,65.67033,3.2087913,1.4409221,4.1666665,125,1
-2.5934067,-94.54945,97.0989,66.10989,3.2087913,1.4409221,4.2,126,1
-2.5934067,-94.9011,97.0989,66.54945,3.2087913,1.4409221,4.233333,127,1
-2.5934067,-95.16483,97.0989,67.07692,3.2087913,1.4409221,4.266667,128,1
-2.5934067,-95.42857,97.0989,67.60439,3.2087913,1.4409221,4.3,129,1
-2.5934067,-95.60439,97.0989,68.04395,3.2087913,1.4409221,4.3333335,130,1
-2.5934067,-95.78022,97.0989,68.48351,3.2087913,1.4409221,4.366667,131,1
-2.5934067,-95.86813,97.0989,68.92308,3.2087913,1.4409221,4.4,132,1
-2.5934067,-95.95605,97.0989,69.27473,3.2087913,1.4409221,4.4333334,133,1
-2.5934067,-95.95605,97.0989,69.53846,3.2967033,1.4409221,4.4666667,134,1
-2.5934067,-95.95605,97.0989,69.89011,3.3846154,1.4409221,4.5,135,1
-2.5934067,-96.04395,97.0989,70.06593,3.3846154,1.4409221,4.5333333,136,1
-2.5934067,-96.13187,97.0989,70.24176,3.3846154,1.4409221,4.5666666,137,1
-2.5934067,-96.30769,97.0989,70.24176,3.3846154,1.4409221,4.6,138,1
-2.5934067,-96.39561,97.0989,70.41758,3.3846154,1.4409221,4.633333,139,1
-2.5934067,-96.39561,97.0989,70.59341,3.3846154,1.4409221,4.6666665,140,1
-2.5934067,-96.39561,97.0989,70.68132,3.3846154,1.4409221,4.7,141,1
-2.5934067,-96.39561,97.0989,70.76923,3.3846154,1.4409221,4.733333,142,1
-2.5934067,-96.39561,97.0989,70.85714,3.3846154,1.4409221,4.766667,143,1
-2.5934067,-96.39561,97.0989,71.03297,3.3846154,1.4409221,4.8,144,1
-2.5934067,-96.39561,97.0989,71.03297,3.3846154,1.4409221,4.8333335,145,1
-2.5934067,-96.39561,97.0989,71.12088,3.3846154,1.4409221,4.866667,146,1
-2.5934067,-96.39561,97.0989,71.12088,3.3846154,1.4409221,4.9,147,1
-2.5934067,-96.39561,97.0989,71.12088,3.3846154,1.4409221,4.9333334,148,1
-2.5934067,-96.39561,97.0989,71.12088,3.3846154,1.4409221,4.9666667,149,1
-2.5934067,-96.39561,97.0989,71.12088,3.3846154,1.4409221,5.0,150,1
-2.5934067,-96.39561,97.0989,71.12088,3.3846154,1.4409221,5.0333333,151,1
-2.5934067,-96.57143,97.0989,71.12088,3.3846154,1.4409221,5.0666666,152,1
-2.5934067,-96.65934,97.0989,71.20879,3.3846154,1.4409221,5.1,153,1
-2.5934067,-96.65934,97.0989,71.20879,3.3846154,1.4409221,5.133333,154,1
-2.5934067,-96.65934,97.0989,71.20879,3.3846154,1.4409221,5.1666665,155,1
-2.5934067,-96.65934,97.0989,71.20879,3.3846154,1.4409221,5.2,156,1
-2.5934067,-96.65934,97.0989,71.20879,3.3846154,1.4409221,5.233333,157,1
-2.5934067,-96.65934,97.0989,71.20879,3.3846154,1.4409221,5.266667,158,1
-2.5934067,-96.65934,97.0989,71.20879,3.3846154,1.4409221,5.3,159,1
-2.5934067,-96.65934,97.0989,71.20879,3.3846154,1.4409221,5.3333335,160,1
-2.5934067,-96.65934,97.0989,71.20879,3.3846154,1.4409221,5.366667,161,1
-2.5934067,-96.65934,97.0989,71.20879,3.3846154,1.4409221,5.4,162,1
-2.5934067,-96.65934,97.0989,71.20879,3.3846154,1.4409221,5.4333334,163,1
-2.5934067,-96.65934,97.0989,71.20879,3.3846154,1.4409221,5.4666667,164,1
-2.5934067,-96.65934,97.0989,71.20879,3.3846154,1.4409221,5.5,165,1
-2.5934067,-96.65934,97.0989,71.20879,3.3846154,1.4409221,5.5333333,166,1
-2.5934067,-96.65934,97.0989,71.20879,3.3846154,1.4409221,5.5666666,167,1
-2.5934067,-96.65934,97.0989,71.20879,3.3846154,1.4409221,5.6,168,1
-2.5934067,-96.65934,97.0989,71.20879,3.3846154,1.4409221,5.633333,169,1
-2.5934067,-96.65934,97.0989,71.20879,3.3846154,1.4409221,5.6666665,170,1
-2.5934067,-96.65934,97.0989,71.20879,3.3846154,1.4409221,5.7,171,1
-2.5934067,-96.65934,97.0989,71.20879,3.3846154,1.4409221,5.733333,172,1
-2.5934067,-96.65934,97.0989,71.20879,3.3846154,1.4409221,5.766667,173,1
-2.5934067,-96.65934,97.0989,71.20879,3.3846154,1.4409221,5.8,174,1
-2.5934067,-96.65934,97.0989,71.20879,3.3846154,1.4409221,5.8333335,175,1
-2.5934067,-96.65934,97.0989,71.20879,3.3846154,1.4409221,5.866667,176,1
-2.5934067,-96.65934,97.0989,71.20879,3.3846154,1.4409221,5.9,177,1
-2.5934067,-96.65934,97.0989,71.20879,3.3846154,1.4409221,5.9333334,178,1
-2.5934067,-96.65934,97.0989,71.20879,3.3846154,1.4409221,5.9666667,179,1
-2.5934067,-96.65934,97.0989,71.20879,3.3846154,1.4409221,6.0,180,1
-2.5934067,-96.65934,97.0989,71.20879,3.3846154,1.4409221,6.0333333,181,1
-2.5934067,-96.65934,97.0989,71.20879,3.3846154,1.4409221,6.0666666,182,1
-2.5934067,-96.65934,97.0989,71.20879,3.3846154,1.4409221,6.1,183,1
-2.5934067,-96.65934,97.0989,71.20879,3.3846154,1.4409221,6.133333,184,1
-2.5934067,-96.65934,97.0989,71.20879,3.3846154,1.4409221,6.1666665,185,1
-2.5934067,-96.65934,97.0989,71.20879,3.3846154,1.4409221,6.2,186,1
-2.5934067,-96.65934,97.0989,71.20879,3.3846154,1.4409221,6.233333,187,1
-2.5934067,-96.65934,97.0989,71.20879,3.3846154,1.4409221,6.266667,188,1
-2.5934067,-96.65934,97.0989,71.20879,3.3846154,1.4409221,6.3,189,1
-2.5934067,-96.65934,97.0989,71.20879,3.3846154,1.4409221,6.3333335,190,1
-2.5934067,-96.65934,97.0989,71.20879,3.3846154,1.4409221,6.366667,191,1
-2.5934067,-96.65934,97.0989,71.20879,3.3846154,1.4409221,6.4,192,1
-2.5934067,-96.65934,97.0989,71.20879,3.3846154,1.4409221,6.4333334,193,1
-2.5934067,-96.65934,97.0989,71.20879,3.3846154,1.4409221,6.4666667,194,1
-2.5934067,-96.65934,97.0989,71.20879,3.3846154,1.4409221,6.5,195,1
-2.5934067,-96.65934,97.0989,71.20879,3.3846154,1.4409221,6.5333333,196,1
-2.5934067,-96.65934,97.0989,71.20879,3.3846154,1.4409221,6.5666666,197,1
-2.5934067,-96.65934,97.0989,71.20879,3.3846154,1.4409221,6.6,198,1
-2.5934067,-96.65934,97.0989,71.20879,3.3846154,1.4409221,6.633333,199,1
-2.5934067,-96.65934,97.0989,71.20879,3.3846154,1.4409221,6.6666665,200,1
-2.5934067,-96.65934,97.0989,71.20879,3.3846154,1.4409221,6.7,201,1
-2.5934067,-96.65934,97.0989,71.20879,3.3846154,1.4409221,6.733333,202,1
-2.5934067,-96.65934,97.0989,71.03297,3.032967,1.4409221,6.766667,203,1
-1.7142857,-96.13187,97.0989,69.53846,2.5934067,1.4409221,6.8,204,1
-0.5714286,-95.60439,97.0989,66.46154,2.3296704,1.4409221,6.8333335,205,1
-0.21978022,-95.25275,97.0989,63.032967,2.2417583,1.4409221,6.866667,206,1
-0.21978022,-94.9011,97.0989,59.956043,2.2417583,1.4409221,6.9,207,1
-0.043956045,-94.54945,97.0989,57.67033,2.2417583,1.4409221,6.9333334,208,1
0.043956045,-93.58242,97.0989,55.56044,2.2417583,1.4409221,6.9666667,209,1
0.043956045,-92.35165,97.0989,53.01099,2.2417583,1.4409221,7.0,210,1
0.043956045,-90.76923,97.0989,49.934067,2.2417583,1.4409221,7.0333333,211,1
-0.30769232,-88.21978,97.0989,46.153847,2.2417583,1.4409221,7.0666666,212,1
-0.74725276,-85.58242,97.0989,41.846153,2.2417583,1.4409221,7.1,213,1
-1.1868132,-82.68132,97.0989,37.362637,2.2417583,1.4409221,7.133333,214,1
-1.6263736,-80.04395,97.0989,32.967033,2.2417583,1.4409221,7.1666665,215,1
-2.3296704,-77.14286,97.01099,28.307692,2.2417583,1.4409221,7.2,216,1
-3.5604396,-73.8022,96.83517,22.593407,2.2417583,1.4409221,7.233333,217,1
-4.7912087,-69.49451,96.57143,16.263737,2.2417583,1.4409221,7.266667,218,1
-5.8461537,-64.65934,96.48351,9.758242,2.2417583,1.4409221,7.3,219,1
-6.989011,-60.43956,96.39561,3.2527473,2.2417583,1.4409221,7.3333335,220,1
-8.395604,-55.956043,96.30769,-3.6923077,2.2417583,1.4409221,7.366667,221,1
-9.714286,-51.472527,96.21978,-10.285714,2.2417583,1.4409221,7.4,222,1
-10.4175825,-47.78022,96.21978,-16.351648,2.2417583,1.4409221,7.4333334,223,1
-11.208791,-44.527473,96.21978,-21.89011,2.2417583,1.4409221,7.4666667,224,1
-12.439561,-41.53846,96.21978,-26.901098,2.1538463,1.4409221,7.5,225,1
-13.758242,-38.285713,96.13187,-31.648352,2.1538463,1.3688761,7.5333333,226,1
-14.901099,-34.945053,96.13187,-36.65934,2.1538463,1.3688761,7.5666666,227,1
-16.21978,-31.868132,96.13187,-41.582417,2.1538463,1.3688761,7.6,228,1
-18.065933,-28.615385,96.13187,-46.417583,2.0659342,1.3688761,7.633333,229,1
-19.912088,-25.274725,96.13187,-51.164837,2.0659342,1.3688761,7.6666665,230,1
-21.406593,-22.10989,96.13187,-55.296703,2.0659342,1.3688761,7.7,231,1
-22.373627,-19.384615,96.13187,-58.9011,2.0659342,1.3688761,7.733333,232,1
-23.604395,-17.186813,96.13187,-61.978024,2.2417583,1.3688761,7.766667,233,1
-24.923077,-15.340659,96.13187,-64.35165,2.5054946,1.3688761,7.8,234,1
-25.978022,-13.758242,96.13187,-66.37363,2.7692308,1.3688761,7.8333335,235,1
-26.681318,-12.0,96.13187,-68.48351,2.7692308,1.3688761,7.866667,236,1
-27.472527,-10.505494,96.21978,-69.97802,3.032967,1.3688761,7.9,237,1
-28.43956,-8.923077,96.21978,-71.64835,3.2087913,1.3688761,7.9333334,238,1
-29.23077,-7.076923,96.30769,-73.58242,3.3846154,1.3688761,7.9666667,239,1
-29.758242,-5.054945,96.39561,-75.42857,3.7362638,1.3688761,8.0,240,1
-30.021978,-3.032967,96.39561,-77.01099,4.0,1.3688761,8.033334,241,1
-30.285715,-1.1868132,96.48351,-78.41758,4.3516483,1.3688761,8.066667,242,1
-30.54945,0.3956044,96.57143,-79.47253,4.7912087,1.3688761,8.1,243,1
-30.725275,2.0659342,96.65934,-80.87912,5.142857,1.3688761,8.133333,244,1
-30.901098,3.8241758,96.57143,-82.1978,5.7582417,1.3688761,8.166667,245,1
-30.901098,5.4065933,96.39561,-83.34066,6.285714,1.3688761,8.2,246,1
-30.989012,6.7252746,96.21978,-84.13187,6.7252746,1.3688761,8.233334,247,1
-31.164835,7.7802196,96.13187,-84.83517,7.164835,1.3688761,8.266666,248,1
-31.34066,8.835165,96.04395,-85.45055,7.6923075,1.3688761,8.3,249,1
-31.604395,9.802197,95.95605,-85.89011,8.131868,1.4409221,8.333333,250,1
-31.78022,10.32967,95.86813,-86.24176,8.571428,1.5129683,8.366667,251,1
-31.868132,10.945055,95.78022,-86.59341,8.923077,1.8011527,8.4,252,1
-31.868132,11.824176,95.60439,-86.85714,9.3626375,2.4495678,8.433333,253,1
-31.956043,12.175824,95.42857,-86.85714,9.802197,3.314121,8.466666,254,1
-32.043957,12.703297,95.34066,-86.94505,10.153846,4.178674,8.5,255,1
-32.043957,13.230769,95.25275,-87.03297,10.593407,4.8991356,8.533334,256,1
-32.043957,13.494506,95.16483,-87.03297,11.208791,6.051873,8.566667,257,1
-32.043957,13.494506,95.07692,-86.94505,11.736263,7.5648413,8.6,258,1
-32.043957,13.5824175,95.07692,-86.94505,12.263737,8.861671,8.633333,259,1
-32.043957,13.758242,95.07692,-86.94505,12.703297,9.942363,8.666667,260,1
-32.043957,13.758242,94.9011,-86.76923,13.230769,10.951009,8.7,261,1
-32.043957,13.934066,94.72527,-86.68132,13.67033,11.743516,8.733334,262,1
-32.043957,14.461538,94.46154,-86.68132,14.021978,12.247839,8.766666,263,1
-32.043957,14.901099,94.28571,-86.59341,14.373627,12.680116,8.8,264,1
-32.043957,15.340659,94.10989,-86.59341,14.549451,12.896254,8.833333,265,1
-32.043957,15.78022,93.93407,-86.59341,14.813187,13.040346,8.866667,266,1
-32.043957,16.043957,93.58242,-86.59341,14.989011,13.184438,8.9,267,1
-32.043957,16.571428,92.96703,-86.59341,15.164835,13.256484,8.933333,268,1
-32.043957,16.835165,92.52747,-86.59341,15.164835,13.32853,8.966666,269,1
-32.043957,17.362637,91.91209,-86.59341,15.164835,13.32853,9.0,270,1
-32.043957,17.978022,91.20879,-86.59341,15.164835,13.32853,9.033334,271,1
-32.043957,18.417582,90.50549,-86.59341,15.164835,13.32853,9.066667,272,1
-32.043957,18.681318,89.97802,-86.59341,15.164835,13.32853,9.1,273,1
-32.043957,19.120878,89.27473,-86.59341,15.164835,13.32853,9.133333,274,1
-32.043957,19.824175,88.48351,-86.59341,15.164835,13.32853,9.166667,275,1
-32.043957,20.527473,87.69231,-86.59341,15.164835,13.32853,9.2,276,1
-32.043957,21.23077,86.9011,-86.59341,15.164835,13.32853,9.233334,277,1
-32.043957,21.934067,85.93407,-86.59341,15.252748,13.32853,9.266666,278,1
-32.131866,22.285715,85.14286,-86.59341,15.604396,13.32853,9.3,279,1
-32.395603,22.901098,84.26373,-86.68132,15.868132,13.32853,9.333333,280,1
-32.747253,23.428572,83.56044,-86.68132,16.043957,13.32853,9.366667,281,1
-33.0989,24.131868,82.59341,-86.68132,16.21978,13.32853,9.4,282,1
-33.362637,24.835165,81.45055,-86.68132,16.395605,13.32853,9.433333,283,1
-33.45055,25.186813,80.74725,-86.68132,16.395605,13.32853,9.466666,284,1
-33.626373,25.626373,80.04395,-86.68132,16.395605,13.32853,9.5,285,1
-33.802197,26.241758,79.34066,-86.68132,16.395605,13.32853,9.533334,286,1
-33.978024,26.76923,78.72527,-86.68132,16.395605,13.32853,9.566667,287,1
-34.065933,27.472527,77.75824,-86.68132,16.395605,13.32853,9.6,288,1
-34.153847,27.912088,76.96703,-86.68132,16.395605,13.32853,9.633333,289,1
-34.153847,28.43956,76.35165,-86.68132,16.395605,13.32853,9.666667,290,1
-34.153847,29.054945,75.64835,-86.68132,16.395605,13.32853,9.7,291,1
-34.153847,29.582418,74.94505,-86.68132,16.395605,13.32853,9.733334,292,1
-34.153847,30.021978,74.32967,-86.68132,16.395605,13.32853,9.766666,293,1
-34.153847,30.373627,73.62637,-86.68132,16.395605,13.32853,9.8,294,1
-34.153847,30.813187,72.92308,-86.68132,16.395605,13.32853,9.833333,295,1
-34.153847,31.164835,72.30769,-86.68132,16.395605,13.32853,9.866667,296,1
-34.153847,31.604395,71.60439,-86.68132,16.395605,13.32853,9.9,297,1
-34.153847,31.956043,71.07692,-86.68132,16.395605,13.32853,9.933333,298,1
-34.153847,32.21978,70.72527,-86.68132,16.395605,13.32853,9.966666,299,1
-34.153847,32.483517,70.37363,-86.68132,16.395605,13.32853,10.0,300,1
-34.153847,32.65934,69.93407,-86.68132,16.395605,13.32853,10.033334,301,1
-34.153847,32.747253,69.58242,-86.68132,16.395605,13.32853,10.066667,302,1
-34.065933,32.57143,69.84615,-86.24176,16.043957,13.6167145,10.1,303,1
-33.53846,31.604395,71.07692,-85.01099,15.868132,14.048991,10.133333,304,1
-33.01099,30.813187,71.95605,-83.86813,15.868132,14.26513,10.166667,305,1
-32.747253,30.373627,72.13187,-83.07692,15.868132,14.26513,10.2,306,1
-32.65934,29.846153,72.39561,-82.46154,15.868132,14.26513,10.233334,307,1
-32.65934,29.406593,72.57143,-81.93407,15.868132,14.26513,10.266666,308,1
-32.65934,28.703297,72.74725,-81.23077,15.78022,14.26513,10.3,309,1
-32.65934,28.087912,72.83517,-80.43956,15.692307,14.26513,10.333333,310,1
-32.57143,27.648352,72.83517,-79.91209,15.692307,14.26513,10.366667,311,1
-32.57143,27.384615,72.83517,-79.47253,15.692307,14.26513,10.4,312,1
-32.395603,26.681318,72.92308,-78.41758,15.692307,14.26513,10.433333,313,1
-32.131866,26.241758,73.01099,-77.62637,15.692307,14.26513,10.466666,314,1
-31.78022,25.978022,73.01099,-77.53846,15.692307,14.193084,10.5,315,1
-31.604395,25.274725,73.01099,-76.48351,15.692307,13.544668,10.533334,316,1
-31.428572,24.571428,73.01099,-75.25275,15.692307,13.040346,10.566667,317,1
-31.252747,23.78022,73.01099,-74.10989,15.692307,12.536023,10.6,318,1
-31.252747,23.34066,73.01099,-73.40659,15.428572,11.527377,10.633333,319,1
-31.076923,22.637363,73.0989,-72.35165,15.076923,9.582132,10.666667,320,1
-30.901098,22.021978,73.45055,-71.56044,14.725275,7.420749,10.7,321,1
-30.813187,21.494505,73.71429,-70.59341,14.373627,5.115274,10.733334,322,1
-30.637363,20.703297,73.8022,-69.45055,14.10989,3.8184438,10.766666,323,1
-30.373627,20.087912,73.97802,-68.48351,14.10989,3.6743517,10.8,324,1
-30.285715,19.824175,74.06593,-68.13187,14.10989,3.6743517,10.833333,325,1
-30.285715,19.296703,74.24176,-67.51649,14.10989,3.6743517,10.866667,326,1
-30.285715,18.681318,74.59341,-66.63736,14.10989,3.6743517,10.9,327,1
-30.285715,18.065933,74.76923,-65.75824,14.10989,3.6743517,10.933333,328,1
-30.285715,17.714285,74.94505,-65.14286,14.10989,3.6743517,10.966666,329,1
-30.285715,17.274725,75.12088,-64.43956,14.021978,3.6743517,11.0,330,1
-30.021978,16.483517,75.47253,-63.472527,13.406593,3.6743517,11.033334,331,1
-29.758242,15.78022,75.56044,-62.417583,12.879121,3.6743517,11.066667,332,1
-29.494505,15.516483,75.73627,-61.626373,12.263737,3.6743517,11.1,333,1
-29.142857,15.076923,76.0,-60.835163,11.296703,3.6743517,11.133333,334,1
-28.879122,14.285714,76.43956,-59.868134,9.802197,3.6743517,11.166667,335,1
-28.615385,13.406593,76.7033,-58.813187,8.21978,3.6743517,11.2,336,1
-28.43956,12.263737,77.05495,-57.758244,6.5494504,3.6743517,11.233334,337,1
-28.351648,11.296703,77.31868,-57.142857,5.4065933,3.6743517,11.266666,338,1
-28.351648,9.978022,77.75824,-56.263737,4.3516483,3.6743517,11.3,339,1
-28.351648,8.307693,78.37363,-54.76923,3.7362638,3.6743517,11.333333,340,1
-28.351648,6.197802,79.07692,-52.747253,3.4725275,3.6743517,11.366667,341,1
-28.351648,3.912088,79.42857,-50.54945,3.2087913,3.6743517,11.4,342,1
-28.351648,1.2747253,80.13187,-48.175823,3.2967033,3.6743517,11.433333,343,1
-28.351648,-1.8021978,80.74725,-45.626373,3.912088,3.6743517,11.466666,344,1
-28.615385,-4.6153846,81.01099,-43.692307,4.5274725,3.6743517,11.5,345,1
-29.054945,-7.6043954,81.62637,-41.758244,5.3186812,3.6743517,11.533334,346,1
-29.67033,-10.593407,82.15385,-39.384617,5.934066,3.6743517,11.566667,347,1
-30.10989,-13.758242,82.85714,-36.395603,6.8131866,3.6743517,11.6,348,1
-30.461538,-16.835165,83.2967,-33.494507,7.5164833,3.6743517,11.633333,349,1
-30.813187,-19.56044,83.64835,-31.032967,8.131868,3.6743517,11.666667,350,1
-31.252747,-21.67033,83.82417,-28.923077,8.659341,3.6743517,11.7,351,1
-31.692308,-23.604395,84.26373,-27.164835,9.098901,3.6743517,11.733334,352,1
-32.131866,-25.45055,84.79121,-25.406593,9.538462,3.6743517,11.766666,353,1
-32.57143,-27.032967,85.05495,-23.648352,9.978022,3.6743517,11.8,354,1
-33.45055,-28.879122,85.67033,-22.241758,10.4175825,3.6743517,11.833333,355,1
-34.417583,-31.076923,86.54945,-20.571428,10.945055,3.6743517,11.866667,356,1
-35.20879,-32.835163,86.98901,-18.813187,11.384615,3.6743517,11.9,357,1
-36.175823,-34.241756,87.34066,-17.23077,11.912087,3.6743517,11.933333,358,1
-37.142857,-36.087914,88.13187,-15.648352,12.263737,3.6743517,11.966666,359,1
-38.373627,-38.46154,89.18681,-13.802197,12.5274725,3.6743517,12.0,360,1
-39.604397,-40.835163,89.8022,-11.692307,12.967033,3.6743517,12.033334,361,1
-41.01099,-43.20879,90.50549,-9.758242,13.318682,3.6743517,12.066667,362,1
-42.32967,-45.31868,91.12088,-8.175824,13.5824175,3.6743517,12.1,363,1
-43.64835,-47.42857,91.91209,-6.769231,13.5824175,3.6743517,12.133333,364,1
-45.23077,-49.0989,92.43956,-5.4505496,13.67033,3.6743517,12.166667,365,1
-46.813187,-50.945053,93.14286,-4.1318684,13.758242,3.6743517,12.2,366,1
-48.131866,-52.43956,93.67033,-3.1648352,13.758242,3.6743517,12.233334,367,1
-49.186813,-53.494507,93.93407,-2.4615386,13.758242,3.6743517,12.266666,368,1
-50.241756,-54.54945,94.28571,-1.8461539,13.758242,3.6743517,12.3,369,1
-51.472527,-55.252747,94.63736,-1.6703297,13.758242,3.6743517,12.333333,370,1
-52.43956,-55.78022,94.9011,-1.5824176,13.758242,3.6743517,12.366667,371,1
-53.23077,-56.483517,95.16483,-1.0549451,13.758242,3.6743517,12.4,372,1
-53.846153,-56.923077,95.51649,-0.7912088,13.758242,3.6743517,12.433333,373,1
-54.725273,-57.0989,95.60439,-0.7032967,13.318682,3.6743517,12.466666,374,1
-55.868134,-57.274727,95.60439,-0.7032967,12.967033,3.6743517,12.5,375,1
-57.0989,-57.45055,95.78022,-0.7032967,12.791209,3.6743517,12.533334,376,1
-58.153847,-57.626373,95.86813,-0.7032967,12.703297,3.6743517,12.566667,377,1
-59.032967,-57.626373,95.86813,-0.8791209,12.5274725,3.6743517,12.6,378,1
-60.087914,-57.626373,95.86813,-1.0549451,12.263737,3.6743517,12.633333,379,1
-60.79121,-57.626373,95.86813,-1.1428572,12.0,3.6743517,12.666667,380,1
-61.67033,-57.626373,95.95605,-1.1428572,11.824176,3.6743517,12.7,381,1
-62.725273,-57.274727,96.04395,-1.6703297,11.736263,3.6743517,12.733334,382,1
-63.78022,-56.923077,96.04395,-2.2857144,11.648352,3.6743517,12.766666,383,1
-64.92308,-56.395603,96.04395,-2.901099,11.560439,3.6743517,12.8,384,1
-65.8022,-55.692307,96.04395,-3.6043956,11.384615,3.6743517,12.833333,385,1
-66.68132,-55.252747,96.04395,-4.1318684,11.120879,3.6743517,12.866667,386,1
-67.56044,-54.725273,96.04395,-4.747253,10.945055,3.6743517,12.9,387,1
-68.43956,-54.285713,96.04395,-5.010989,10.769231,3.6743517,12.933333,388,1
-68.96703,-54.285713,96.04395,-4.923077,10.505494,3.6743517,12.966666,389,1
-68.96703,-54.021976,96.04395,-5.0989013,10.4175825,3.6743517,13.0,390,1
-69.23077,-53.582417,96.04395,-5.4505496,10.32967,3.6743517,13.033334,391,1
-69.31868,-53.582417,96.04395,-5.1868134,10.32967,3.6743517,13.066667,392,1
-69.31868,-53.494507,96.04395,-4.659341,10.32967,3.6743517,13.1,393,1
-69.40659,-53.23077,96.04395,-4.659341,10.241758,3.6743517,13.133333,394,1
-69.49451,-53.23077,96.04395,-4.3956046,10.153846,3.6743517,13.166667,395,1
-69.49451,-53.23077,96.04395,-3.7802198,9.802197,3.6743517,13.2,396,1
-69.49451,-53.23077,96.04395,-2.989011,9.538462,3.962536,13.233334,397,1
-69.49451,-53.23077,96.04395,-2.5494506,9.450549,4.2507205,13.266666,398,1
-69.49451,-53.23077,96.04395,-2.5494506,9.450549,4.8991356,13.3,399,1
-69.49451,-53.23077,96.04395,-2.5494506,9.450549,5.54755,13.333333,400,1
-69.49451,-53.31868,96.04395,-2.3736265,9.450549,6.2680116,13.366667,401,1
-69.14286,-53.494507,96.04395,-1.8461539,9.450549,6.772334,13.4,402,1
-68.17583,-54.197803,96.04395,-2.1098902,9.010989,6.772334,13.433333,403,1
-65.97802,-55.692307,96.04395,-3.4285715,7.340659,5.4755044,13.466666,404,1
-63.076923,-57.186813,96.04395,-4.747253,5.4065933,3.7463977,13.5,405,1
-59.912086,-58.32967,96.13187,-5.0989013,4.175824,2.5936599,13.533334,406,1
-57.53846,-59.12088,96.13187,-4.923077,3.5604396,2.089337,13.566667,407,1
-56.395603,-59.824177,96.13187,-4.747253,3.1208792,1.8011527,13.6,408,1
-55.164837,-60.527473,96.13187,-4.0439563,3.032967,1.6570605,13.633333,409,1
-53.934067,-60.967033,96.13187,-3.2527473,2.857143,1.6570605,13.666667,410,1
-52.703297,-61.23077,96.21978,-2.6373627,2.857143,1.6570605,13.7,411,1
-52.175823,-61.846153,96.21978,-1.7582418,2.857143,1.6570605,13.733334,412,1
-52.175823,-62.285713,96.21978,-1.1428572,2.857143,1.6570605,13.766666,413,1
-51.912086,-62.725273,96.21978,-0.43956044,2.857143,1.6570605,13.8,414,1
-51.472527,-63.252747,96.21978,0.17582418,2.857143,1.6570605,13.833333,415,1
-51.12088,-63.692307,96.21978,0.8791209,2.857143,1.6570605,13.866667,416,1
-50.68132,-64.13187,96.30769,1.8461539,2.857143,1.6570605,13.9,417,1
-50.241756,-64.65934,96.30769,2.6373627,2.857143,1.6570605,13.933333,418,1
-50.153847,-65.18681,96.30769,2.7252748,2.857143,1.6570605,13.966666,419,1
-50.153847,-65.62637,96.30769,3.3406594,2.857143,1.6570605,14.0,420,1
-50.153847,-66.06593,96.39561,4.3956046,3.1208792,1.6570605,14.033334,421,1
-50.153847,-66.94505,96.39561,5.1868134,3.2087913,1.6570605,14.066667,422,1
-50.153847,-67.82417,96.39561,6.2417583,3.2087913,1.6570605,14.1,423,1
-50.065933,-68.79121,96.48351,7.4725275,3.2087913,1.6570605,14.133333,424,1
-49.978024,-69.58242,96.57143,8.879121,3.2087913,1.6570605,14.166667,425,1
-49.714287,-70.63736,96.57143,10.373627,3.2087913,1.6570605,14.2,426,1
-49.45055,-71.60439,96.65934,11.516483,3.2087913,1.6570605,14.233334,427,1
-49.53846,-72.04395,96.65934,11.604396,3.2087913,1.6570605,14.266666,428,1
-49.626373,-72.92308,96.74725,12.131868,3.2087913,1.6570605,14.3,429,1
-49.626373,-73.89011,96.83517,13.538462,3.6483517,1.7291067,14.333333,430,1
-49.0989,-74.76923,96.92308,14.945055,4.0,1.7291067,14.366667,431,1
-48.835163,-75.47253,96.92308,15.648352,4.3516483,2.017291,14.4,432,1
-48.835163,-76.0,97.01099,16.527473,4.6153846,2.2334294,14.433333,433,1
-48.923077,-76.52747,97.01099,17.582418,4.879121,2.2334294,14.466666,434,1
-48.835163,-77.23077,97.01099,18.637363,5.142857,2.2334294,14.5,435,1
-48.307693,-78.10989,97.0989,19.956043,5.3186812,2.2334294,14.533334,436,1
-47.42857,-78.81319,97.0989,21.274725,5.4065933,2.2334294,14.566667,437,1
-46.813187,-79.25275,97.0989,22.153847,5.4945054,2.2334294,14.6,438,1
-46.10989,-79.95605,97.0989,23.032967,5.6703296,2.2334294,14.633333,439,1
-45.67033,-80.57143,97.0989,24.0,5.934066,2.2334294,14.666667,440,1
-45.054947,-81.0989,97.0989,24.967033,6.10989,2.2334294,14.7,441,1
-44.263737,-81.45055,97.0989,25.582418,6.197802,2.2334294,14.733334,442,1
-43.384617,-81.97802,97.0989,26.197802,6.373626,2.2334294,14.766666,443,1
-42.68132,-82.15385,97.0989,26.725275,6.285714,2.2334294,14.8,444,1
-42.417583,-82.50549,97.0989,27.34066,6.373626,2.2334294,14.833333,445,1
-41.626373,-83.20879,97.0989,28.395605,6.373626,2.2334294,14.866667,446,1
-40.747253,-84.0,97.0989,29.802198,6.373626,2.5216138,14.9,447,1
-39.868134,-84.43956,97.0989,30.76923,6.373626,2.7377522,14.933333,448,1
-38.98901,-84.87912,97.0989,31.56044,6.373626,2.8097982,14.966666,449,1
-37.67033,-85.67033,97.0989,32.87912,6.373626,2.8097982,15.0,450,1
-36.35165,-86.1978,97.0989,34.021976,6.373626,2.8097982,15.033334,451,1
-35.472527,-86.63736,97.0989,34.9011,6.373626,2.8097982,15.066667,452,1
-34.76923,-86.98901,97.0989,35.516483,6.373626,2.8097982,15.1,453,1
-33.802197,-87.25275,97.0989,35.868134,6.373626,2.8097982,15.133333,454,1
-32.65934,-87.69231,97.0989,36.747253,6.373626,2.8097982,15.166667,455,1
-31.604395,-88.04395,97.0989,37.45055,6.373626,2.8097982,15.2,456,1
-30.54945,-88.48351,97.0989,38.505493,6.373626,2.8097982,15.233334,457,1
-29.494505,-88.83517,97.0989,39.296703,6.373626,2.8097982,15.266666,458,1
-28.351648,-89.27473,97.0989,40.087914,6.373626,2.8097982,15.3,459,1
-27.384615,-89.27473,97.0989,40.35165,6.373626,2.5936599,15.333333,460,1
-26.153847,-89.97802,97.0989,41.054947,6.373626,2.3775215,15.366667,461,1
-24.395605,-90.85714,97.0989,42.637363,6.373626,2.2334294,15.4,462,1
-22.989012,-91.12088,97.0989,43.868134,6.373626,2.017291,15.433333,463,1
-22.197802,-90.94505,97.0989,44.043957,6.373626,2.017291,15.466666,464,1
-21.142857,-91.20879,97.0989,44.043957,6.373626,2.017291,15.5,465,1
-19.648352,-91.91209,97.0989,44.923077,6.373626,2.017291,15.533334,466,1
-18.241758,-92.26373,97.0989,45.802197,6.373626,2.017291,15.566667,467,1
-17.186813,-92.52747,97.0989,46.417583,6.373626,2.017291,15.6,468,1
-16.043957,-92.7033,97.0989,47.032967,6.373626,1.9452449,15.633333,469,1
-14.813187,-93.05495,97.0989,47.912086,6.373626,1.7291067,15.666667,470,1
-13.758242,-93.14286,97.0989,48.615383,6.373626,1.5850145,15.7,471,1
-13.054945,-93.31868,97.0989,49.494507,6.373626,1.5129683,15.733334,472,1
-12.087913,-93.40659,97.0989,50.021976,6.373626,1.5129683,15.766666,473,1
-11.120879,-93.40659,97.0989,50.285713,6.373626,1.5129683,15.8,474,1
-10.505494,-93.40659,97.0989,50.54945,6.373626,1.5129683,15.833333,475,1
-9.89011,-93.40659,97.0989,50.98901,6.373626,1.5129683,15.866667,476,1
-9.186813,-93.58242,97.0989,51.78022,6.373626,1.5129683,15.9,477,1
-8.571428,-93.58242,97.0989,52.57143,6.373626,1.5129683,15.933333,478,1
-8.21978,-93.58242,97.0989,53.362637,6.373626,1.5129683,15.966666,479,1
-7.8681316,-93.58242,97.0989,54.065933,6.373626,1.5129683,16.0,480,1
-7.6043954,-93.75824,97.0989,54.76923,6.373626,1.5129683,16.033333,481,1
-7.340659,-93.93407,97.0989,55.20879,6.373626,1.5129683,16.066668,482,1
-6.989011,-94.28571,97.0989,55.912086,6.285714,1.5129683,16.1,483,1
-6.6373625,-94.54945,97.0989,56.967033,6.10989,1.5129683,16.133333,484,1
-6.373626,-94.63736,97.0989,57.758244,5.8461537,1.5129683,16.166666,485,1
-6.197802,-94.72527,97.0989,58.373627,5.6703296,1.5129683,16.2,486,1
-5.8461537,-94.81319,97.0989,59.252747,5.4945054,1.5129683,16.233334,487,1
-5.5824175,-95.07692,97.0989,60.131866,5.3186812,1.5129683,16.266666,488,1
-5.3186812,-95.34066,97.0989,60.65934,5.230769,1.5129683,16.3,489,1
-5.142857,-95.51649,97.0989,61.362637,5.230769,1.5129683,16.333334,490,1
-5.054945,-95.69231,97.0989,62.065933,5.230769,1.5129683,16.366667,491,1
-4.7912087,-95.95605,97.0989,62.945053,5.230769,1.5129683,16.4,492,1
-4.5274725,-95.95605,97.0989,63.736263,5.142857,1.5129683,16.433332,493,1
-4.5274725,-95.95605,97.0989,64.26373,4.967033,1.5129683,16.466667,494,1
-4.5274725,-95.95605,97.0989,64.52747,4.879121,1.5129683,16.5,495,1
-4.5274725,-95.95605,97.0989,64.61539,4.879121,1.5129683,16.533333,496,1
-4.5274725,-95.95605,97.0989,64.7033,4.7912087,1.5129683,16.566668,497,1
-4.5274725,-95.95605,97.0989,65.23077,4.7912087,1.5129683,16.6,498,1
-4.4395604,-96.04395,97.0989,65.75824,4.7912087,1.5129683,16.633333,499,1
-4.175824,-96.04395,97.0989,66.28571,4.7912087,1.5129683,16.666666,500,1
-4.087912,-96.13187,97.0989,66.37363,4.7912087,1.5129683,16.7,501,1
-4.087912,-96.13187,97.0989,66.37363,4.7912087,1.5129683,16.733334,502,1
-3.912088,-96.04395,97.0989,65.93407,4.5274725,1.5129683,16.766666,503,1
-3.7362638,-95.25275,97.0989,64.08791,4.2637362,1.5129683,16.8,504,1
-3.7362638,-93.31868,97.0989,60.57143,4.087912,1.5129683,16.833334,505,1
-3.7362638,-91.03297,97.0989,56.35165,4.087912,1.5129683,16.866667,506,1
-3.7362638,-89.27473,97.0989,51.956043,4.087912,1.5129683,16.9,507,1
-3.7362638,-87.60439,97.0989,47.824177,4.087912,1.5129683,16.933332,508,1
-3.7362638,-85.75824,97.0989,43.868134,4.087912,1.5129683,16.966667,509,1
-4.3516483,-83.56044,97.0989,40.0,4.087912,1.5129683,17.0,510,1
-4.967033,-81.36264,97.0989,36.307693,4.087912,1.5129683,17.033333,511,1
-6.10989,-78.54945,97.0989,32.0,4.087912,1.5129683,17.066668,512,1
-7.8681316,-74.76923,97.01099,26.54945,4.087912,1.5129683,17.1,513,1
-9.89011,-70.02198,96.65934,20.131868,4.087912,1.5129683,17.133333,514,1
-11.384615,-64.92308,96.48351,13.3626375,4.087912,1.5129683,17.166666,515,1
-12.791209,-60.0,96.30769,6.5934067,4.087912,1.5129683,17.2,516,1
-14.813187,-54.725273,96.21978,-0.52747256,4.0,1.5129683,17.233334,517,1
-16.835165,-49.53846,96.13187,-7.5604396,4.0,1.5129683,17.266666,518,1
-18.417582,-44.615383,96.13187,-14.593407,4.087912,1.5129683,17.3,519,1
-20.0,-39.868134,96.04395,-21.714285,4.087912,1.5129683,17.333334,520,1
-21.934067,-35.384617,96.04395,-28.747253,4.087912,1.5129683,17.366667,521,1
-23.868132,-30.813187,96.04395,-35.516483,4.087912,1.5129683,17.4,522,1
-25.714285,-26.681318,96.04395,-42.54945,4.087912,1.5129683,17.433332,523,1
-27.120878,-22.813187,96.04395,-49.142857,4.087912,1.5129683,17.466667,524,1
-28.791208,-19.208792,96.04395,-55.032967,4.087912,1.5129683,17.5,525,1
-30.461538,-15.78022,96.04395,-60.043957,4.0,1.5129683,17.533333,526,1
-31.868132,-12.791209,96.04395,-64.35165,4.087912,1.5129683,17.566668,527,1
-33.0989,-10.505494,96.13187,-67.60439,4.087912,1.5129683,17.6,528,1
-34.505493,-8.483517,96.13187,-70.32967,4.087912,1.5129683,17.633333,529,1
-35.64835,-6.5494504,96.21978,-72.35165,4.087912,1.5129683,17.666666,530,1
-36.43956,-4.7032967,96.30769,-74.28571,4.087912,1.5129683,17.7,531,1
-37.054947,-3.1208792,96.39561,-75.78022,4.3516483,1.5129683,17.733334,532,1
-37.67033,-1.6263736,96.39561,-77.18681,4.5274725,1.5129683,17.766666,533,1
-38.285713,-0.30769232,96.48351,-78.50549,4.7912087,1.5129683,17.8,534,1
-38.9011,1.0109891,96.57143,-79.91209,4.967033,1.5129683,17.833334,535,1
-39.34066,2.7692308,96.57143,-81.49451,5.142857,1.5129683,17.866667,536,1
-39.516483,4.6153846,96.30769,-82.63736,5.142857,1.5129683,17.9,537,1
-39.692307,6.285714,96.21978,-83.95605,5.3186812,1.5129683,17.933332,538,1
-39.868134,7.9560437,96.04395,-85.01099,5.3186812,1.5129683,17.966667,539,1
-39.868134,9.802197,95.86813,-86.32967,5.4065933,1.5129683,18.0,540,1
-39.868134,11.824176,95.69231,-87.56044,5.6703296,1.5850145,18.033333,541,1
-39.868134,13.142858,95.42857,-88.43956,5.8461537,2.7377522,18.066668,542,1
-39.868134,14.549451,95.07692,-89.14286,6.021978,3.6023054,18.1,543,1
-39.868134,16.835165,94.37363,-89.58242,6.10989,4.8991356,18.133333,544,1
-39.868134,18.153847,93.93407,-89.67033,6.373626,6.8443804,18.166666,545,1
-39.868134,18.593407,93.58242,-89.67033,6.5494504,9.077809,18.2,546,1
-39.868134,19.120878,93.49451,-89.31868,6.8131866,11.3832855,18.233334,547,1
-39.868134,19.648352,93.31868,-89.14286,6.989011,13.040346,18.266666,548,1
-39.868134,20.087912,92.7033,-89.14286,7.164835,14.1210375,18.3,549,1
-39.868134,20.263737,92.61539,-89.14286,7.252747,14.769452,18.333334,550,1
-39.868134,20.263737,92.52747,-89.14286,7.252747,15.201729,18.366667,551,1
-39.868134,20.351648,92.43956,-89.14286,7.252747,15.489914,18.4,552,1
-39.868134,20.351648,92.43956,-89.14286,7.252747,15.561959,18.433332,553,1
-39.868134,20.351648,92.43956,-89.05495,7.252747,15.706052,18.466667,554,1
-39.868134,20.527473,92.26373,-88.87912,7.252747,15.778098,18.5,555,1
-39.868134,20.703297,92.17583,-88.87912,7.252747,15.850144,18.533333,556,1
-39.868134,20.791208,92.08791,-88.7033,7.252747,15.850144,18.566668,557,1
-39.868134,20.791208,92.08791,-88.7033,7.252747,15.850144,18.6,558,1
-39.868134,20.791208,92.08791,-88.7033,7.428571,15.850144,18.633333,559,1
-39.868134,20.791208,92.08791,-88.7033,7.6043954,15.850144,18.666666,560,1
-39.868134,20.879122,92.0,-88.7033,7.8681316,15.850144,18.7,561,1
-39.868134,21.142857,91.73627,-88.7033,8.043956,15.850144,18.733334,562,1
-39.868134,21.142857,91.73627,-88.52747,8.131868,15.850144,18.766666,563,1
-39.956043,21.142857,91.73627,-88.17583,8.21978,15.850144,18.8,564,1
-40.21978,21.142857,91.73627,-88.08791,8.395604,15.850144,18.833334,565,1
-40.395603,21.142857,91.73627,-88.08791,8.395604,15.850144,18.866667,566,1
-40.57143,21.142857,91.73627,-88.08791,8.395604,15.850144,18.9,567,1
-40.747253,21.318682,91.56044,-88.08791,8.395604,15.850144,18.933332,568,1
-40.835163,21.406593,91.56044,-88.08791,8.395604,15.850144,18.966667,569,1
-41.01099,21.406593,91.56044,-88.08791,8.395604,15.850144,19.0,570,1
